!!!!SEGMENT: pl-sa--279-a-vii-39--006_rathgeber-johann-valentin--vesperae-magnificat.krn
!!!cenid: 17xx:627
!!!COM: Rathgeber, Johann Valentin
!!!COM-rismID: pe30002639
!!!CDT: 1682/04/03-1750/06/02
!!!CNT: German
!!!OPR: Vesperae
!!!OTL: Magnificat
!!!OMV: 006
!!!PDT: 1731
!!!AGN: Sacred; Vespers
!!!SMS-siglum: PL-SA
!!!SMS-shelfmark: 279/A VII 39
!!!SMS-shelfwork: 001-006 M
!!!SMS-variant:
!!!SMS-altvar:
!!!NIFC-rismSourceID: 1001077278
!!!NIFC-islandoraID:
!!!URL-pdf-islandora:
!!!URL-scan: https://bc.bdsandomierz.pl/dlibra/publication/1762/edition/1730/content @EN{Scan in the Sandomierz Diocese Digital Library} @PL{Skany w portalu Cyfrowa Biblioteka Diecezjalna w Sandomierzu}
!!!ONB-nifc: UWAGA: części Vesperae: Dixit Dominus, Laudate Pueri, Laetatus sum, Nisi Dominus, Lauda Jerusalem, Magnificat
!!!AIN: 1 alto 1 empty 1 organ 1 tenor 2 violn 1 vox
!!!key:
**kern	**fba	**kern	**kern	**kern	**text	**kern	**text	**kern	**text	**kern	**text
*part7	*	*part6	*part5	*part4	*part4	*part3	*part3	*part2	*part2	*part1	*part1
*staff7	*	*staff6	*staff5	*staff4	*staff4	*staff3	*staff3	*staff2	*staff2	*staff1	*staff1
*Iorgan	*	*Ivioln	*Ivioln	*Iempty	*	*Itenor	*	*Ialto	*	*Ivox	*
*I"Organo	*	*I"Violino Unisono	*I"Violino Unisono	*I"Baſso	*	*I"Tenore	*	*I"Alto	*	*I"Canto	*
*I'P7	*	*I''vn 2	*I'vn 1	*I'B	*	*I'T	*	*I'A	*	*I'C	*
*group3	*	*group2	*group2	*group1	*	*group1	*	*group1	*	*group1	*
*clefF4	*	*clefG2	*clefG2	*clefF4	*	*clefC4	*	*clefC3	*	*clefC1	*
*k[]	*	*k[]	*k[]	*k[]	*	*k[]	*	*k[]	*	*k[]	*
*C:	*	*C:	*C:	*C:	*	*C:	*	*C:	*	*C:	*
*M2/4	*	*M2/4	*M2/4	*M2/4	*	*M2/4	*	*M2/4	*	*M2/4	*
=1	=1	=1	=1	=1	=1	=1	=1	=1	=1	=1	=1
!LO:TX:a:t=P:problem=brak nazwy partii, na stronie tytułowej "Baſso. Pro. ORGANO"	!	!LO:TX:a:t=P:problem=w skanie na str. 46-48	!LO:TX:a:t=P:problem=w skanie na str. 38-40	!	!	!	!	!	!	!	!
!LO:TX:b:t=Magnificat anima	!	!LO:TX:a:t=P:problem= drugi skan	!LO:TX:a:t=P:problem= pierwszy skan	!	!	!	!	!	!	!LO:N:vis=0	!
!	!	!LO:TX:b:t=Magnificat	!LO:TX:b:t=Magnificat	!	!	!	!	!	!	!	!
!	!	!LO:N:vis=0	!LO:N:vis=0	!	!	!	!	!	!	!	!
4r	.	1r	1r	4r	.	4r	.	4r	.	1r	.
4c\	6	.	.	4c\	Ma-	4e\	Ma-	4g\	Ma-	.	.
=2	=2	=2	=2	=2	=2	=2	=2	=2	=2	=2	=2
4B\	6	.	.	4B\	-gni-	4d\	-gni-	4g\	-gni-	.	.
4A\	6|	.	.	4A\	-fi-	4c\	-fi-	4f#X\	-fi-	.	.
=3	=3	=3	=3	=3	=3	=3	=3	=3	=3	=3	=3
4G\	.	8r	8r	4G\	-cat	4B\	-cat	4g\	-cat	4r	.
.	.	8f/L	8g/L	.	.	.	.	.	.	.	.
4r	.	8f/	8g/	4r	.	4r	.	4r	.	4g/	Ma-
.	.	8f/J	8g/J	.	.	.	.	.	.	.	.
!	!	!	!	!	!	!	!	!LO:TX:a:t=P:problem= brak kreski taktowej	!	!	!
=4	=4	=4	=4	=4	=4	=4	=4	=4	=4	=4	=4
2r	.	8e/L	8e/L	2r	.	2r	.	2r	.	4cc\	-gni-
.	.	8f/	8f/	.	.	.	.	.	.	.	.
.	.	8d/	8d/	.	.	.	.	.	.	4b\	-fi-
.	.	8e/J	8e/J	.	.	.	.	.	.	.	.
=5	=5	=5	=5	=5	=5	=5	=5	=5	=5	=5	=5
4r	.	4c/	4c/	4r	.	4r	.	4r	.	4cc\	-cat
4C/	.	4r	4r	4c\	Ma-	4e\	Ma-	4g\	Ma-	4r	.
=6	=6	=6	=6	=6	=6	=6	=6	=6	=6	=6	=6
4BB/	6	2r	2r	4B\	-gni-	4d\	-gni-	4g\	-gni-	2r	.
4AA/	6|	.	.	4A\	-fi-	4c\	-fi-	4f#X\	-fi-	.	.
=7	=7	=7	=7	=7	=7	=7	=7	=7	=7	=7	=7
4GG/	.	8r	8r	4G\	-cat	4B\	-cat	4g\	-cat	4r	.
.	.	8g/L	8g/L	.	.	.	.	.	.	.	.
4r	.	8g/	8g/	4r	.	4r	.	4r	.	4g/	Ma-
.	.	8g/J	8g/J	.	.	.	.	.	.	.	.
=8	=8	=8	=8	=8	=8	=8	=8	=8	=8	=8	=8
2r	.	8e/L	8e/L	2r	.	2r	.	2r	.	4cc\	-gni-
.	.	8f/	8f/	.	.	.	.	.	.	.	.
.	.	8d/	8d/	.	.	.	.	.	.	4b\	-fi-
.	.	8e/J	8e/J	.	.	.	.	.	.	.	.
=9	=9	=9	=9	=9	=9	=9	=9	=9	=9	=9	=9
!	!	!	!	!	!	!	!	!	!	!LO:TX:a:t=P:global:problem= oddech jako rozdzielacz słów	!
4r	.	8c/L	8c/L	4r	.	4r	.	4r	.	4cc,\	-cat
.	.	8f/	8f/	.	.	.	.	.	.	.	.
4F\	.	8f/	8f/	4G\	Ma-	4G/	Ma-	4d\	Ma-	4b\	Ma-
.	.	8f/J	8f/J	.	.	.	.	.	.	.	.
=10	=10	=10	=10	=10	=10	=10	=10	=10	=10	=10	=10
4E\	6	8cc\L	8cc\L	4E\	-gni-	4G/	-gni-	4e\	-gni-	4cc\	-gni-
.	.	8g\	8g\	.	.	.	.	.	.	.	.
4BB/	6	8dd\	8dd\	8BB/	-fi-	8G/	-fi-	8d\	-fi-	8dd\	-fi-
.	.	8g\J	8g\J	8BB/	-cat	8G/	-cat	8d\	-cat	8dd\	-cat
!	!	!	!	!LO:LB:g=original	!	!	!	!	!	!	!
=11	=11	=11	=11	=11	=11	=11	=11	=11	=11	=11	=11
4C/	.	8ee\L	8ee\L	4C/	A-	4c\	a-	4e\	a-	4ee\	A-
.	.	8cc\	8cc\	.	.	.	.	.	.	.	.
!	!	!	!	!	!	!	!	!LO:LB:g=original	!	!	!
4AA/	.	8cc\	8cc\	8AA/	-ni-	8e\	-ni-	8a\	-ni-	8cc\	-ni-
.	.	8cc\J	8cc\J	8AA/	-ma	8e\	-ma	8g\	-ma	8b\	-ma
=12	=12	=12	=12	=12	=12	=12	=12	=12	=12	=12	=12
4D/	#	8a\L	8a\L	4D\	me-	4d\	me-	4f#X\	me-	4a\	me-
.	.	8dd\J	8dd\J	.	.	.	.	.	.	.	.
!	!	!	!	!	!	!	!	!	!	!LO:LB:g=original	!
4GG/	.	8b\L	8b\L	4G\	-a	4d\	-a	4g\	-a	4b\	-a
.	.	8g\J	8g\J	.	.	.	.	.	.	.	.
!LO:PB:g=original	!	!LO:LB:g=original	!LO:LB:g=original	!	!	!LO:LB:g=original	!	!	!	!	!
=13	=13	=13	=13	=13	=13	=13	=13	=13	=13	=13	=13
4D/	.	8g\L	8g\L	4.D/	Do-	4.d\	Do-	4.a\	Do-	4.a\	Do-
.	4	8dd\	8dd\	.	.	.	.	.	.	.	.
4DD/	3#	8dd\	8dd\	.	.	.	.	.	.	.	.
.	.	8dd\J	8dd\J	8D/	-mi-	8e\	-mi-	8f#X\	-mi-	8a\	-mi-
=14	=14	=14	=14	=14	=14	=14	=14	=14	=14	=14	=14
!	!	!	!	!	!	!	!	!LO:TX:a:t=P:global:problem= oddech jako rozdzielacz słów	!	!	!
4GG/	.	4b\	4b\	4GG,/	-num	4d,\	-num	4g,\	-num	4b\	-num
4G\	.	4r	4r	4G\	Ma-	4d\	Ma-	4b\	Ma-	4r	.
=15	=15	=15	=15	=15	=15	=15	=15	=15	=15	=15	=15
!	!	!	!	!LO:SIC:s=4F#:v	!	!	!	!	!	!	!
4F#X\	6	2r	2r	4G#X\	-gni-	4d\	-gni-	4a\	-gni-	2r	.
!	!	!	!	!	!	!LO:N:vis=8	!	!	!	!	!
4E\	6|	.	.	4E\	-fi-	4c#X\	-fi-	4g\	-fi-	.	.
!	!	!	!	!	!	!	!	!	!	!LO:TX:a:t=P:problem= brak kreski taktowej	!
=16	=16	=16	=16	=16	=16	=16	=16	=16	=16	=16-z	=16
4D\	.	8r	8r	4D/	-cat	4d\	-cat	4f#X\	-cat	4r	.
.	.	8d/L	8d/L	.	.	.	.	.	.	.	.
4r	.	8d/	8d/	4r	.	4r	.	4r	.	4d/	Ma-
.	.	8d/J	8d/J	.	.	.	.	.	.	.	.
=17	=17	=17	=17	=17	=17	=17	=17	=17	=17	=17	=17
2r	.	8B/L	8B/L	2r	.	2r	.	2r	.	4g/	-gni-
.	.	8c/	8c/	.	.	.	.	.	.	.	.
.	.	8A/	8A/	.	.	.	.	.	.	4f#X/	-fi-
.	.	8B/J	8B/J	.	.	.	.	.	.	.	.
=18	=18	=18	=18	=18	=18	=18	=18	=18	=18	=18	=18
4r	.	4G/	4G/	4r	.	4r	.	4r	.	4g/	-cat
4G\	.	4r	4r	4G\	Ma-	4d\	Ma-	4b\	Ma-	4r	.
=19	=19	=19	=19	=19	=19	=19	=19	=19	=19	=19	=19
4F#X\	6	2r	2r	4F#X\	-gni-	4d\	-gni-	4a\	-gni-	2r	.
4E\	6|	.	.	4E\	-fi-	4c#X\	-fi-	4g\	-fi-	.	.
!	!	!	!	!	!	!	!	!	!	!LO:TX:a:t=P:problem= brak kreski taktowej	!
=20	=20	=20	=20	=20	=20	=20	=20	=20	=20	=20-z	=20
4D\	#	8r	8r	4D/	-cat	4d\	-cat	4f#X\	-cat	4r	.
.	.	8d/L	8d/L	.	.	.	.	.	.	.	.
4r	.	8d/	8d/	4r	.	4r	.	4r	.	4d/	Ma-
.	.	8d/J	8d/J	.	.	.	.	.	.	.	.
=21	=21	=21	=21	=21	=21	=21	=21	=21	=21	=21	=21
2r	.	8B/L	8B/L	2r	.	2r	.	2r	.	4g/	-gni-
.	.	8c/	8c/	.	.	.	.	.	.	.	.
.	.	8A/	8A/	.	.	.	.	.	.	4f#X/	-fi-
.	.	8B/J	8B/J	.	.	.	.	.	.	.	.
!	!	!	!	!LO:LB:g=original	!	!	!	!	!	!	!
=22	=22	=22	=22	=22	=22	=22	=22	=22	=22	=22	=22
4r	.	8G/L	8G/L	4r	.	4r	.	4r	.	4g,/	-cat
.	.	8f/	8g/	.	.	.	.	.	.	.	.
4G\	.	8f/	8g/	4G\	Ma-	4G/	Ma-	4d\	Ma-	4b\	Ma-
.	.	8f/J	8g/J	.	.	.	.	.	.	.	.
!	!	!	!	!	!	!	!	!LO:LB:g=original	!	!	!
=23	=23	=23	=23	=23	=23	=23	=23	=23	=23	=23	=23
4E\	6	8cc\L	8cc\L	4E\	-gni-	4G/	-gni-	4e\	-gni-	4cc\	-gni-
.	.	8g\	8g\	.	.	.	.	.	.	.	.
4BB/	6	8dd\	8dd\	8BB/	-fi-	8G/	-fi-	8d\	-fi-	8dd\	-fi-
.	.	8g\J	8g\J	8BB/	-cat	8G/	-cat	8d,\	-cat	8dd\	-cat
!	!	!LO:LB:g=original	!	!	!	!	!	!	!	!	!
=24	=24	=24	=24	=24	=24	=24	=24	=24	=24	=24	=24
!	!	!LO:TX:a:t=P:problem= mixed beam	!LO:TX:a:t=P:problem= mixed beam	!	!	!	!	!	!	!	!
4C/	.	8ee\L	8ee\L	4C/	a-	4c\	a-	4e\	A-	4ee\	a-
.	.	8cc\	8cc\	.	.	.	.	.	.	.	.
!	!	!	!	!	!	!	!	!	!	!LO:LB:g=original	!
4FF/	.	8dd\	8dd\	8FF/	-ni-	8d\	-ni-	8a\	-ni-	8ff\	-ni-
.	.	8g/J	8g/J	8FF/	-ma	8c\	-ma	8a\	-ma	8ee\	-ma
!	!	!	!LO:LB:g=original	!	!	!LO:LB:g=original	!	!	!	!	!
=25	=25	=25	=25	=25	=25	=25	=25	=25	=25	=25	=25
4GG/	.	8b/L	8b/L	4GG/	me-	4B\	me-	4g\	me-	4dd\	me-
.	.	8g/J	8g/J	.	.	.	.	.	.	.	.
!	!	!LO:TX:a:t=P:problem= mixed beam	!LO:TX:a:t=P:problem= mixed beam	!	!	!	!	!	!	!	!
4C/	.	8cc\L	8cc\L	4C/	-a	4c\	-a	4g\	-a	4ee\	-a
.	.	8e/J	8e/J	.	.	.	.	.	.	.	.
=26	=26	=26	=26	=26	=26	=26	=26	=26	=26	=26	=26
4G\	.	8d/L	8d/L	4.G\	Do-	4.c\	Do-	4.g\	Do-	4.dd\	Do-
.	4	8f/	8g/	.	.	.	.	.	.	.	.
4GG/	3	8f/	8g/	.	.	.	.	.	.	.	.
.	.	8f/J	8g/J	8GG/	-mi-	8B\	-mi-	8g\	-mi-	8dd\	-mi-
!LO:LB:g=original	!	!	!	!	!	!	!	!	!	!	!
=27	=27	=27	=27	=27	=27	=27	=27	=27	=27	=27	=27
!	!	!LO:TX:a:t=P:problem= mixed beam	!LO:TX:a:t=P:problem= mixed beam	!	!	!	!	!	!	!	!
4C/	.	8e/L	8e/L	8C,/	-nu(m)	8c,\	-num	8g,\	-num	8cc\	-num
.	.	8ee\	8ee\	8c\	Et	8G/	et	8g\	[et]	8ee\	Et
4r	.	8ee\	8ee\	8c\	ex-	8c\	Ex-	8g\	ex-	8ee\	ex-
.	.	8ee\J	8ee\J	8c\	-ul-	8B\	-ul-	8g\	-ul-	8ee\	-ul-
=28	=28	=28	=28	=28	=28	=28	=28	=28	=28	=28	=28
4C/	.	4gg\	4gg\	8c\L	-ta-	8c\L	-ta-	4.g\	-ta-	8ee\L	-ta-
.	.	.	.	8G\	.	8B\	.	.	.	8dd\	.
4r	.	4r	4r	8c\	.	8c\	.	.	.	8ee\	.
*	*	*	*	*	*	*	*	*Xtuplet	*	*	*
!	!	!	!	!	!	!	!	!LO:TX:a:t=P:global:problem= brak oznaczeń trioli	!	!	!
.	.	.	.	8G\J	.	8B\J	.	24a\LL	.	8dd\J	.
.	.	.	.	.	.	.	.	24g\	.	.	.
.	.	.	.	.	.	.	.	24a\JJ	.	.	.
=29	=29	=29	=29	=29	=29	=29	=29	=29	=29	=29	=29
4C/	.	4gg\	4gg\	8c\L	.	8c\L	.	4.g\	.	8ee\L	.
.	.	.	.	8G\	.	8B\	.	.	.	8dd\	.
4r	.	4r	4r	8c\	.	8c\	.	.	.	8ee\	.
.	.	.	.	8G\J	.	8B\J	.	24a\LL	.	8dd\J	.
.	.	.	.	.	.	.	.	24g\	.	.	.
.	.	.	.	.	.	.	.	24a\JJ	.	.	.
=30	=30	=30	=30	=30	=30	=30	=30	=30	=30	=30	=30
4C/	.	4ee\	4ee\	8c\L	.	8c\L	.	4.g\	.	8ee\L	.
.	.	.	.	8G\	.	8B\	.	.	.	8dd\	.
4r	.	4r	4r	8c\	.	8c\	.	.	.	8ee\	.
.	.	.	.	8d\J	.	8B\J	.	24a\LL	.	8ff\J	.
.	.	.	.	.	.	.	.	24g\	.	.	.
.	.	.	.	.	.	.	.	24a\JJ	.	.	.
!	!	!	!	!LO:LB:g=original	!	!	!	!	!	!	!
=31	=31	=31	=31	=31	=31	=31	=31	=31	=31	=31	=31
4GG/	.	8r	8r	8G\	-vit	8B,\	-vit	8g,\	-vit	8gg\	.
.	.	8b\L	8b/L	8G\	Et	8B\	Et	8g\	[et]	8dd,\	-vit
4r	.	8b\	8b/	8G\	ex-	8B\	ex-	8g\	ex-	8dd\	ex-
.	.	8b\J	8b/J	8G\	-ul-	8B\	-ul-	8g\	-ul-	8dd\	-ul-
!	!	!	!	!	!	!	!	!LO:LB:g=original	!	!	!
=32	=32	=32	=32	=32	=32	=32	=32	=32	=32	=32	=32
4GG/	.	4dd\	4dd\	8G\L	-ta-	8B\L	-ta-	8g\L	-ta-	4.dd\	-ta-
.	.	.	.	8D\	.	8A\	.	8f#X\	.	.	.
4r	.	4r	4r	8G\	.	8B\	.	8g\	.	.	.
!	!	!	!	!	!	!	!	!	!	!LO:LB:g=original	!
.	.	.	.	8D\J	.	8A\J	.	8f#X\J	.	24ee\LL	.
.	.	.	.	.	.	.	.	.	.	24dd\	.
.	.	.	.	.	.	.	.	.	.	24ee\JJ	.
=33	=33	=33	=33	=33	=33	=33	=33	=33	=33	=33	=33
4GG/	.	4dd\	4dd\	8G\L	.	8B\L	.	8g\L	.	4.dd\	.
.	.	.	.	8D\	.	8A\	.	8f\	.	.	.
!	!	!LO:TX:b:i:t=Cito	!LO:TX:b:i:t=Verte Cito	!	!	!	!	!	!	!	!
4r	.	4r	4r	8G\	.	8B\	.	8g\	.	.	.
*	*	*	*	*	*	*	*	*	*	*Xtuplet	*
!	!	!	!	!	!	!	!	!	!	!LO:TX:a:t=P:problem=brak oznaczenia trioli od tego miejsca	!
.	.	.	.	8D\J	.	8A\J	.	8f\J	.	24ee\LL	.
.	.	.	.	.	.	.	.	.	.	24dd\	.
.	.	.	.	.	.	.	.	.	.	24ee\JJ	.
!	!	!LO:PB:g=original	!LO:PB:g=original	!	!	!LO:LB:g=original	!	!	!	!	!
=34	=34	=34	=34	=34	=34	=34	=34	=34	=34	=34	=34
!LO:TX:a:t=P:problem= mixed beam	!	!	!	!	!	!	!	!	!	!	!
8GG/L	.	8cc\L	8cc\L	8G\	-vit	8B,\	-vit	8g,\	-vit	8dd,\	-vit
8G\J	.	8g\	8g\	8G\	Et	8G/	Et	8d\	et	8b\	et
8E\L	6	8cc\	8cc\	8E\	ex-	8G/	ex-	8g\	ex-	8cc\	ex-
8C\J	.	8cc\J	8cc\J	8C/	-ul-	8G/	-ul-	8e\	-ul-	8cc\	-ul-
=35	=35	=35	=35	=35	=35	=35	=35	=35	=35	=35	=35
8F\L	.	16cc\LL	16cc\LL	8F\L	-ta-	8A/L	-ta-	8f\L	-ta-	4.cc\	-ta-
.	.	16dd\	16dd\	.	.	.	.	.	.	.	.
8E\J	6	16cc\	16cc\	8E\	.	8G/	.	8c\	.	.	.
.	.	16dd\JJ	16dd\JJ	.	.	.	.	.	.	.	.
8F\L	.	16cc\LL	16cc\LL	8F\	.	8A/	.	8f\	.	.	.
.	.	16dd\	16dd\	.	.	.	.	.	.	.	.
8E\J	.	16cc\	16cc\	8E\J	.	8G/J	.	8c\J	.	24dd\LL	.
.	.	.	.	.	.	.	.	.	.	24cc\	.
.	.	16dd\JJ	16dd\JJ	.	.	.	.	.	.	.	.
.	.	.	.	.	.	.	.	.	.	24dd\JJ	.
=36	=36	=36	=36	=36	=36	=36	=36	=36	=36	=36	=36
8F\L	.	8cc\L	8cc\L	8F,\	-vit	8A,/	-vit	8f,\	-vit	8cc,\	-vit
8D\	#	8dd\	8dd\	8D\	Et	8A/	Et	8f#X\	et	8dd\	et
8F#X\	6	8dd\	8dd\	8F#X\	ex-	8A/	Ex-	8d\	ex-	8dd\	ex-
8D\J	#	8dd\J	8dd\J	8D/	-ul-	8A/	-ul-	8f#X\	-ul-	8dd\	-ul-
=37	=37	=37	=37	=37	=37	=37	=37	=37	=37	=37	=37
8G\L	.	16dd\LL	16dd\LL	8G\L	-ta-	8B\L	-ta-	8g\	-ta-	4.dd\	-ta-
.	.	16ee\	16ee\	.	.	.	.	.	.	.	.
8F#X\	6	16dd\	16dd\	8F#X\	.	8A\	.	8d\	.	.	.
.	.	16ee\JJ	16ee\JJ	.	.	.	.	.	.	.	.
8G\	.	16dd\LL	16dd\LL	8G\	.	8B\	.	8g\	.	.	.
.	.	16ee\	16ee\	.	.	.	.	.	.	.	.
8F#X\J	6	16dd\	16dd\	8F#X\J	.	8A\J	.	8d\	.	24ee\LL	.
.	.	.	.	.	.	.	.	.	.	24dd\	.
.	.	16ee\JJ	16ee\JJ	.	.	.	.	.	.	.	.
.	.	.	.	.	.	.	.	.	.	24ee\JJ	.
!	!	!	!	!LO:LB:g=original	!	!	!	!	!	!	!
=38	=38	=38	=38	=38	=38	=38	=38	=38	=38	=38	=38
8G\L	.	8dd\L	8dd\L	8G,\	-vit	8B,\	-vit	8g,\	-vit	8dd,\	-vit
8E\	#	8ee\	8ee\	8E\	et	8B\	et	8g#X\	et	8ee\	et
8G#X\	6	8ee\	8ee\	8G#X\	Ex-	8B\	ex-	8e\	ex-	8ee\	ex-
8E\J	#	8ee\J	8ee\J	8E\	-ul-	8B\	-ul-	8g#X\	-ul-	8ee\	-ul-
!LO:LB:g=original	!	!	!	!	!	!	!	!	!	!LO:LB:g=original	!
=39	=39	=39	=39	=39	=39	=39	=39	=39	=39	=39	=39
8A\L	.	16ee\LL	16ee\LL	8A\L	-ta-	8c\L	-ta-	8a\L	-ta-	4.ee\	-ta-
.	.	16ff\	16ff\	.	.	.	.	.	.	.	.
8G#X\	.	16ee\	16ee\	8G#X\	.	8B\	.	8e\J	.	.	.
.	.	16ff\JJ	16ff\JJ	.	.	.	.	.	.	.	.
!	!	!	!	!	!	!	!	!LO:LB:g=original	!	!	!
8A\	.	16ee\LL	16ee\LL	8A\	.	8c\	.	8a\L	.	.	.
.	.	16ff\	16ff\	.	.	.	.	.	.	.	.
8G#X\J	.	16ee\	16ee\	8G#X\J	.	8B\J	.	8e\J	.	24ff\LL	.
.	.	.	.	.	.	.	.	.	.	24ee\	.
.	.	16ff\JJ	16ff\JJ	.	.	.	.	.	.	.	.
.	.	.	.	.	.	.	.	.	.	24ff\JJ	.
=40	=40	=40	=40	=40	=40	=40	=40	=40	=40	=40	=40
8A\L	.	8ee\L	8ee\L	8A\	-vit	8c\	-vit	8a,\	-vit	8ee,\	-vit
8Gn\	.	8gg\	8gg\	8Gn\	Et	8B\	et	8d\	et	8gg\	et
8B\	6	8gg\	8gg\	8B\	Ex-	8d\	Ex-	8d\	ex-	8gg\	ex-
8G\J	.	8gg\J	8gg\J	8G\	-ul-	8B\	-ul-	8d\	-ul-	8gg\	-ul-
!	!	!	!LO:LB:g=original	!	!	!	!	!	!	!	!
=41	=41	=41	=41	=41	=41	=41	=41	=41	=41	=41	=41
8c\L	.	16gg\LL	16gg\LL	8c\L	-ta-	8c\L	-ta-	8e\L	-ta-	8ee\L	-ta-
.	.	16aa\	16aa\	.	.	.	.	.	.	.	.
8G\	.	16gg\	16gg\	8G\	.	8B\	.	8g\	.	8dd\	.
.	.	16aa\JJ	16aa\JJ	.	.	.	.	.	.	.	.
!	!	!LO:LB:g=original	!	!	!	!	!	!	!	!	!
8c\	.	16gg\LL	16gg\LL	8c\	.	8c\	.	8e\	.	8ee\	.
.	.	16aa\	16aa\	.	.	.	.	.	.	.	.
8G\J	.	16gg\	16gg\	8G\J	.	8B\J	.	8g\J	.	8dd\J	.
.	.	16aa\JJ	16aa\JJ	.	.	.	.	.	.	.	.
!	!	!	!	!	!	!LO:LB:g=original	!	!	!	!	!
=42	=42	=42	=42	=42	=42	=42	=42	=42	=42	=42	=42
!LO:TX:a:t=P:problem= mixed beam	!	!	!	!	!	!	!	!	!	!	!
8c\L	.	8gg\L	8gg\L	8c,\	-vit	8c,\	-vit	8g,\	-vit	8ee,\	-vit
8C/J	.	8gg\	8gg\	8C/	et	8c\	et	8g\	et	8ee\	et
8E/L	.	8gg\	8gg\	8E/	ex-	8c\	Ex-	8g\	ex-	8ee\	ex-
8C/J	.	8gg\J	8gg\J	8C/	-ul-	8c\	-ul-	8g\	-ul-	8ee\	-ul-
=43	=43	=43	=43	=43	=43	=43	=43	=43	=43	=43	=43
8F\L	.	16ff\LL	16ff\LL	8F\	-ta-	8c\	-ta-	8a\	-ta-	8ff\	-ta-
.	.	16gg\	16gg\	.	.	.	.	.	.	.	.
8G\	.	16ff\	16ff\	8G,\	-vit	8c\	-vit	8a,\	-vit	8ff,\	-vit
.	.	16gg\JJ	16gg\JJ	.	.	.	.	.	.	.	.
8A\	.	16ff\LL	16ff\LL	8A\	ſpi-	8c\	ſpi-	8a\	ſpi-	8ff\	ſpi-
.	.	16gg\	16gg\	.	.	.	.	.	.	.	.
8B\J	.	16ff\	16ff\	16B\	-ri-	16d\	-ri-	16g\	-ri-	16ff\	-ri-
.	.	16gg\JJ	16gg\JJ	16B\	-tus	16d\	-tus	16g\	-tus	16ff\	-tus
!	!	!	!	!LO:PB:g=original	!	!	!	!	!	!	!
=44	=44	=44	=44	=44	=44	=44	=44	=44	=44	=44	=44
!LO:TX:a:t=P:problem= mixed beam	!	!	!	!	!	!	!	!	!	!	!
8c\L	.	8ee\L	8ee\L	8c\	me-	8G/	me-	8g\L	me-	8ee\	me-
8C/J	.	8gg\	8gg\	8C/	-us	8G/	-us	8g\J	-us	8ee\	-us
8r	.	8gg\	8gg\	8r	.	8r	.	8r	.	8r	.
8E\	6	8gg\J	8gg\J	8E\	in	8c\	in	8g\	in	8cc\	in
=45	=45	=45	=45	=45	=45	=45	=45	=45	=45	=45	=45
8F\L	.	16ff\LL	16ff\LL	8F\	De-	8c\	De-	8a\	De-	8ff\	De-
.	.	16gg\	16gg\	.	.	.	.	.	.	.	.
8G\	.	16ff\	16ff\	8G,\	-o	8c\	-o	8a\	-o	8ff\	-o
.	.	16gg\JJ	16gg\JJ	.	.	.	.	.	.	.	.
!	!	!	!	!	!	!	!	!	!	!LO:LB:g=original	!
8A\	.	16ff\LL	16ff\LL	8A\	ſa-	8c\	ſa-	8a\	ſa-	8ff\	ſa-
.	.	16gg\	16gg\	.	.	.	.	.	.	.	.
8B\J	.	16ff\	16ff\	8B\	-lu-	8c\	-lu-	8a\	-lu-	8ff\	-lu-
.	.	16gg\JJ	16gg\JJ	.	.	.	.	.	.	.	.
!	!	!	!	!	!	!	!	!LO:LB:g=original	!	!	!
=46	=46	=46	=46	=46	=46	=46	=46	=46	=46	=46	=46
!LO:TX:a:t=P:problem= mixed beam	!	!	!	!	!	!	!	!	!	!	!
8c\L	.	8ee\L	8ee\L	8c\	-ta-	8c\	-ta-	8g\	-ta-	8ee\	-ta-
8F\	6 5	8aa\	8aa\	8F\	-ri	8c\	-ri	8a\	-ri	8dd\	-ri
8G\	.	8dd\	8dd\	4G\	me-	4B\	me-	4g\	me-	4dd\	me-
8GG/J	.	8gg\J	8gg\J	.	.	.	.	.	.	.	.
=47	=47	=47	=47	=47	=47	=47	=47	=47	=47	=47	=47
!	!	!LO:TX:a:t=P:problem= mixed beam	!LO:TX:a:t=P:problem= mixed beam	!	!	!	!	!	!	!	!
4C/	.	8ee\L	8ee\L	8C/	-o	8c\	-o	8g\	-o	8cc,\	-o
.	.	8e/	8d/	8r	.	8r	.	8r	.	8ee\	qui-
4r	.	8e/	8d/	4r	.	4r	.	4r	.	8ee\	-a
.	.	8e/J	8e/J	.	.	.	.	.	.	8ee\	re-
=48	=48	=48	=48	=48	=48	=48	=48	=48	=48	=48	=48
!LO:N:vis=0	!	!	!	!LO:N:vis=00	!	!LO:N:vis=00	!	!LO:N:vis=00	!	!	!
1r	.	8a/L	8a/L	0r	.	0r	.	0r	.	(8a\L	-ſpe-
.	.	8e/	8e/	.	.	.	.	.	.	8g#X\J)	.
.	.	8a/	8a/	.	.	.	.	.	.	8a\	-xit
.	.	8e/J	8e/J	.	.	.	.	.	.	8b\	hu-
!	!	!	!LO:LB:g=original	!	!	!	!	!	!	!	!
=49	=49	=49	=49	=49	=49	=49	=49	=49	=49	=49	=49
.	.	8a/L	8a/L	.	.	.	.	.	.	(8cc\L	-mi-
.	.	8e/	8e/	.	.	.	.	.	.	8b\J)	.
.	.	8a/	8a/	.	.	.	.	.	.	(8cc\L	-li-
.	.	8f/J	8f/J	.	.	.	.	.	.	8dd\J)	.
!	!	!LO:LB:g=original	!	!	!	!	!	!	!	!	!
=50	=50	=50	=50	=50	=50	=50	=50	=50	=50	=50	=50
!	!	!LO:TX:a:t=P:problem= mixed beam	!LO:TX:a:t=P:problem= mixed beam	!	!	!	!	!	!	!	!
8r	.	8e/L	8e/L	.	.	.	.	.	.	4ee\	-ta-
8E\L	#	8ee\	8ee\	.	.	.	.	.	.	.	.
8E\	.	8ee\	8ee\	.	.	.	.	.	.	8e/	-tem
8E\J	.	8ee\J	8ee\J	.	.	.	.	.	.	8r	.
=51	=51	=51	=51	=51	=51	=51	=51	=51	=51	=51	=51
!	!	!	!	!	!	!	!	!	!	!LO:N:vis=0	!
8A\L	.	8a/L	8a/L	.	.	.	.	.	.	1r	.
8E\	#	8g#X/	8g#X/	.	.	.	.	.	.	.	.
8A\	.	8a/	8a/	.	.	.	.	.	.	.	.
8E\J	#	8b/J	8b/J	.	.	.	.	.	.	.	.
=52	=52	=52	=52	=52	=52	=52	=52	=52	=52	=52	=52
!	!	!	!	!LO:N:vis=00	!	!LO:N:vis=00	!	!LO:N:vis=00	!	!	!
8A\L	.	8cc\L	8cc\L	0r	.	0r	.	0r	.	.	.
8E\	#	8b\	8b\	.	.	.	.	.	.	.	.
8A\	.	8cc\	8cc\	.	.	.	.	.	.	.	.
8F\J	6	8dd\J	8dd\J	.	.	.	.	.	.	.	.
!	!	!	!	!	!	!	!	!	!	!LO:TX:a:t=P:problem= brak kreski taktowej	!
=53	=53	=53	=53	=53	=53	=53	=53	=53	=53	=53-z	=53
!	!	!LO:TX:a:t=P:problem= mixed beam	!LO:TX:a:t=P:problem= mixed beam	!	!	!	!	!	!	!	!
4E\	#	8ee\L	8ee\L	.	.	.	.	.	.	8r	.
.	.	8e/	8e/	.	.	.	.	.	.	8ee\	Qui-
4r	.	8e/	8e/	.	.	.	.	.	.	8ee\	-a
.	.	8e/J	8e/J	.	.	.	.	.	.	8ee\	re
!	!	!	!	!	!	!	!	!	!	!LO:LB:g=original	!
=54	=54	=54	=54	=54	=54	=54	=54	=54	=54	=54	=54
!LO:N:vis=0	!	!	!	!	!	!	!	!	!	!	!
1r	.	8a/L	8a/L	.	.	.	.	.	.	(8a\L	ſpe-
.	.	8e/	8e/	.	.	.	.	.	.	8g#X\J)	.
.	.	8a/	8a/	.	.	.	.	.	.	8a,\	-xit
.	.	8e/J	8e/J	.	.	.	.	.	.	8b\	hu-
=55	=55	=55	=55	=55	=55	=55	=55	=55	=55	=55	=55
.	.	8a/L	8a/L	.	.	.	.	.	.	(8cc\L	-mi-
.	.	8e/	8e/	.	.	.	.	.	.	8b\J)	.
.	.	8a/	8a/	.	.	.	.	.	.	(8cc\L	-li-
.	.	8e/J	8e/J	.	.	.	.	.	.	8dd\J)	.
!LO:LB:g=original	!	!	!	!	!	!	!	!	!	!	!
=56	=56	=56	=56	=56	=56	=56	=56	=56	=56	=56	=56
!	!	!	!	!LO:N:vis=00	!	!LO:N:vis=00	!	!LO:N:vis=00	!	!	!
8r	.	4.e/	4.e/	0r	.	0r	.	0r	.	4ee\	-ta-
8E\L	#	.	.	.	.	.	.	.	.	.	.
8E\	.	.	.	.	.	.	.	.	.	8e,/	-tem
8E\J	.	8r	8r	.	.	.	.	.	.	8ee\	hu-
=57	=57	=57	=57	=57	=57	=57	=57	=57	=57	=57	=57
!	!	!LO:N:vis=0	!LO:TX:a:t=3.	!	!	!	!	!	!	!	!
!	!	!	!LO:N:vis=0	!	!	!	!	!	!	!	!
8F\L	6	1r	1r	.	.	.	.	.	.	(8dd\L	-mi-
8E\	6	.	.	.	.	.	.	.	.	8cc\J)	.
8D\	6	.	.	.	.	.	.	.	.	(8b\L	-li-
8C\J	6	.	.	.	.	.	.	.	.	8a\J)	.
=58	=58	=58	=58	=58	=58	=58	=58	=58	=58	=58	=58
!LO:TX:a:t=P:problem= mixed beam	!	!	!	!	!	!	!	!	!	!	!
8BB\L	6|	.	.	.	.	.	.	.	.	4g#X/	-ta-
8B\	.	.	.	.	.	.	.	.	.	.	.
8A\	.	.	.	.	.	.	.	.	.	8a,\	-tem
8G#X\J	6	.	.	.	.	.	.	.	.	8b\	An-
=59	=59	=59	=59	=59	=59	=59	=59	=59	=59	=59	=59
!LO:TX:a:t=P:problem= mixed beam	!	!	!	!	!	!	!	!	!	!	!
8A\L	.	2r	2r	.	.	.	.	.	.	8cc\	-cil-
8D\	.	.	.	.	.	.	.	.	.	8dd\	-la(e)
8E\	#	.	.	.	.	.	.	.	.	4b\	ſu-
8EE/J	.	.	.	.	.	.	.	.	.	.	.
=60	=60	=60	=60	=60	=60	=60	=60	=60	=60	=60	=60
!	!	!	!	!LO:N:vis=00	!	!LO:N:vis=00	!	!LO:N:vis=00	!	!	!
4AA/	.	4r	4r	0r	.	0r	.	0r	.	4a,\	-a(e)
4r	.	8c/L	8c/L	.	.	.	.	.	.	8cc\	Ec-
.	.	8c/J	8c/J	.	.	.	.	.	.	8cc\	-ce
!	!	!	!LO:LB:g=original	!	!	!	!	!	!	!LO:LB:g=original	!
=61	=61	=61	=61	=61	=61	=61	=61	=61	=61	=61	=61
!LO:N:vis=00	!	!	!	!	!	!	!	!	!	!	!
0r	.	8f/L	8f/L	.	.	.	.	.	.	4a\	e-
.	.	8g/	8g/	.	.	.	.	.	.	.	.
.	.	8a/	8a/	.	.	.	.	.	.	8a\	-nim
.	.	8f/J	8f/J	.	.	.	.	.	.	8a\	ex
=62	=62	=62	=62	=62	=62	=62	=62	=62	=62	=62	=62
.	.	8d/L	8d/L	.	.	.	.	.	.	4.dd\	hoc
.	.	8e/	8e/	.	.	.	.	.	.	.	.
.	.	8f/	8f/	.	.	.	.	.	.	.	.
.	.	8d/J	8d/J	.	.	.	.	.	.	8dd\	Be-
!	!	!LO:LB:g=original	!	!	!	!	!	!	!	!	!
=63	=63	=63	=63	=63	=63	=63	=63	=63	=63	=63	=63
.	.	8g/L	8g/L	.	.	.	.	.	.	4b\	-a-
.	.	8a/	8a/	.	.	.	.	.	.	.	.
.	.	8b/	8b/	.	.	.	.	.	.	8b,\	-tam
.	.	8g/J	8g/J	.	.	.	.	.	.	8b\	Me-
=64	=64	=64	=64	=64	=64	=64	=64	=64	=64	=64	=64
!	!	!	!	!LO:N:vis=00	!	!LO:N:vis=00	!	!LO:N:vis=00	!	!	!
.	.	8e/L	8e/L	0r	.	0r	.	0r	.	4.ee\	-di-
.	.	8f/	8f/	.	.	.	.	.	.	.	.
.	.	8g/	8g/	.	.	.	.	.	.	.	.
.	.	8e/J	8e/J	.	.	.	.	.	.	8ee,\	-cent
=65	=65	=65	=65	=65	=65	=65	=65	=65	=65	=65	=65
!LO:N:vis=00	!	!	!	!	!	!	!	!	!	!	!
0r	.	8a/L	8a/L	.	.	.	.	.	.	(8ff\L	O-
.	.	8g/	8g/	.	.	.	.	.	.	8ee\J)	.
.	.	8f/	8f/	.	.	.	.	.	.	(8dd\L	-mnes
.	.	8e/J	8e/J	.	.	.	.	.	.	8cc\J)	.
=66	=66	=66	=66	=66	=66	=66	=66	=66	=66	=66	=66
.	.	8d/L	8d/L	.	.	.	.	.	.	4b\	ge-
.	.	8f/	8f/	.	.	.	.	.	.	.	.
.	.	8e/	8e/	.	.	.	.	.	.	4cc\	-ne-
.	.	8c/J	8c/J	.	.	.	.	.	.	.	.
=67	=67	=67	=67	=67	=67	=67	=67	=67	=67	=67	=67
!	!	!LO:TX:a:t=P:problem=nie zapisana przestrzeń w takcie	!	!	!	!	!	!	!	!	!
.	.	8B/L	8B/L	.	.	.	.	.	.	4dd\	-ra-
.	.	8G/	8G/	.	.	.	.	.	.	.	.
.	.	8c/	8c/	.	.	.	.	.	.	4ee\	-ti-
.	.	8e/J	8e/J	.	.	.	.	.	.	.	.
=68	=68	=68	=68	=68	=68	=68	=68	=68	=68	=68	=68
*	*	*	*	*	*	*	*	*	*	*2\right	*
.	.	8f/L	8f/L	2r	.	2r	.	2r	.	2dd\	-o-
.	.	8d/	8d/	.	.	.	.	.	.	.	.
.	.	8g/	8g/	.	.	.	.	.	.	.	.
.	.	8G/J	8G/J	.	.	.	.	.	.	.	.
!	!	!	!	!	!	!LO:PB:g=original	!	!	!	!	!
=69	=69	=69	=69	=69	=69	=69	=69	=69	=69	=69	=69
4r	.	4c/	4c/	4r	.	4r	.	4r	.	4cc\	-nes
!LO:TX:b:i:t=Tut	!	!	!	!	!	!	!	!	!	!	!
4C/	.	4r	4r	8c\	qui-	8e\	Qui-	8g\	Qui-	4r	.
.	.	.	.	8c\	-a	8e\	-a	8g\	-a	.	.
!LO:LB:g=original	!	!	!	!	!	!	!	!	!	!	!
=70	=70	=70	=70	=70	=70	=70	=70	=70	=70	=70	=70
4BB/	6	2r	2r	8B\	fe-	8d\	fe-	8g\	fe-	2r	.
.	.	.	.	8B\	-cit	8d\	-cit	8g\	-cit	.	.
!	!	!	!	!LO:LB:g=original	!	!	!	!	!	!	!
4AA/	6|	.	.	8A\	mi-	8c\	Mi-	8f#X\	Mi-	.	.
.	.	.	.	8A\	-hi	8c\	-hi	8f#\	-hi	.	.
!	!	!	!	!	!	!	!	!	!	!LO:PB:g=original	!
=71	=71	=71	=71	=71	=71	=71	=71	=71	=71	=71	=71
4GG/	.	8r	8r	4G\	ma-	8B\	ma-	8g\	ma-	4r	.
.	.	8g/L	8g/L	.	.	8B\	-gna	8g\	-gna	.	.
4r	.	8g/	8g/	8G\	-gna	4r	.	4r	.	4g/	Qui
.	.	8g/J	8g/J	8r	.	.	.	.	.	.	.
!	!	!LO:LB:g=original	!LO:LB:g=original	!	!	!	!	!	!	!	!
=72	=72	=72	=72	=72	=72	=72	=72	=72	=72	=72	=72
2r	.	8e/L	8e/L	2r	.	2r	.	2r	.	4cc\	po-
.	.	8f/	8f/	.	.	.	.	.	.	.	.
.	.	8d/	8d/	.	.	.	.	.	.	4b\	-tens
.	.	8e/J	8e/J	.	.	.	.	.	.	.	.
!	!	!	!	!	!	!	!	!LO:TX:a:t=P:problem= brak kreski taktowej	!	!	!
=73	=73	=73	=73	=73	=73	=73	=73	=73-z	=73	=73	=73
4r	.	4c/	4c/	4r	.	4r	.	4r	.	4cc\	eſt
4G\	.	4r	4r	4G\	qui	4d\	qui	8r	.	4r	.
.	.	.	.	.	.	.	.	8b\	qui	.	.
=74	=74	=74	=74	=74	=74	=74	=74	=74	=74	=74	=74
4F#X\	6	2r	2r	4F#X\	po-	4d\	po-	4a\	po-	2r	.
!LO:TX:a:t=P:problem=skreślona kreska taktowa	!	!	!	!	!	!	!	!	!	!	!
4E\	7	.	.	4E\	-tens	4c#X\	-tens	4g\	-tens	.	.
.	6	.	.	.	.	.	.	.	.	.	.
=75	=75	=75	=75	=75	=75	=75	=75	=75	=75	=75	=75
4D/	#	8r	8r	4D/	eſt	4d\	eſt	4f#X\	eſt	4r	.
.	.	8d/L	8d/L	.	.	.	.	.	.	.	.
4r	.	8d/	8d/	4r	.	4r	.	4r	.	4d/	qui
.	.	8d/J	8d/J	.	.	.	.	.	.	.	.
!	!	!	!	!	!	!	!	!LO:LB:g=original	!	!	!
=76	=76	=76	=76	=76	=76	=76	=76	=76	=76	=76	=76
!	!	!	!	!LO:TX:a:t=1	!	!	!	!LO:N:vis=0	!	!	!
2r	.	8B/L	8B/L	2r	.	2r	.	1r	.	4g/	po-
.	.	8c/	8c/	.	.	.	.	.	.	.	.
.	.	8A/	8A/	.	.	.	.	.	.	4f#X/	-tens
.	.	8B/J	8B/J	.	.	.	.	.	.	.	.
=77	=77	=77	=77	=77	=77	=77	=77	=77	=77	=77	=77
4r	.	8G/L	8G/L	4r	.	2r	.	.	.	4g,/	eſt
.	.	8g/	8g/	.	.	.	.	.	.	.	.
4G\	.	8g/	8g/	4G\	et	.	.	.	.	4g/	et
.	.	8g/J	8g/J	.	.	.	.	.	.	.	.
!	!	!	!	!	!	!	!	!LO:TX:a:t=P:problem= brak kreski taktowej	!	!	!
=78	=78	=78	=78	=78	=78	=78	=78	=78-z	=78	=78	=78
4E\	6	8cc\L	8cc\L	4E\	ſan-	4r	.	4r	.	4cc\	ſan-
.	.	8g\	8g\	.	.	.	.	.	.	.	.
4BB/	6	8dd\	8dd\	4BB/	-cut(s)	4d\	et	4g\	et	4dd\	-ctu(s)
.	.	8g\J	8g\J	.	.	.	.	.	.	.	.
=79	=79	=79	=79	=79	=79	=79	=79	=79	=79	=79	=79
4C/	.	8ee\L	8ee\L	4C/	No-	4c\	ſan-	4g\	ſan-	(8ee\L	No-
.	.	8cc\	8cc\	.	.	.	.	.	.	8dd\J)	.
4AA/	.	8cc\	8cc\	4AA/	-men	4e\	-ctu(s)	4a\	-ctu(s)	(8cc\L	-men
.	.	8cc\J	8cc\J	.	.	.	.	.	.	8b\J)	.
=80	=80	=80	=80	=80	=80	=80	=80	=80	=80	=80	=80
4D/	#	8a\L	8a\L	4D/	No-	4d\	No-	4f#X\	No-	4a\	no-
.	.	8dd\	8dd\	.	.	.	.	.	.	.	.
4GG/	.	8b\	8b\	4GG/	-men	4d\	-men	4g\	-men	4b\	-men
.	.	8g\J	8g\J	.	.	.	.	.	.	.	.
=81	=81	=81	=81	=81	=81	=81	=81	=81	=81	=81	=81
*	*	*	*2\right	*2\right	*	*2\right	*	*	*	*	*
4D/	.	8a\L	8a\L	2D/	e-	2d\	e-	(4g\	e-	2a\	e-
.	4	8dd\	8dd\	.	.	.	.	.	.	.	.
4DD/	3#	8dd\	8dd\	.	.	.	.	4f#X\)	.	.	.
.	.	8dd\J	8dd\J	.	.	.	.	.	.	.	.
!	!	!	!	!LO:LB:g=original	!	!LO:LB:g=original	!	!	!	!	!
=82	=82	=82	=82	=82	=82	=82	=82	=82	=82	=82	=82
*	*	*	*	*	*	*	*	*2\right	*	*	*
!	!	!	!LO:TX:a:t=P: 2\right : global:problem	!	!	!	!	!	!	!	!
2GG/	.	2b/	2b\	2GG/	-ius	2d\	-ius	2g,\	-jus	2b\	-jus
!	!	!	!	!	!	!	!	!	!	!LO:LB:g=original	!
=83	=83	=83	=83	=83	=83	=83	=83	=83	=83	=83	=83
!LO:TX:b:i:t=ſolo	!	!LO:N:vis=0	!LO:N:vis=0	!LO:N:vis=00	!	!LO:N:vis=00	!	!	!	!LO:N:vis=0	!
8E\L	.	1r	1r	0r	.	0r	.	4.e\	Et	0r	.
8F#X\J	.	.	.	.	.	.	.	.	.	.	.
8G\L	.	.	.	.	.	.	.	.	.	.	.
8E\J	.	.	.	.	.	.	.	8g\	mi-	.	.
=84	=84	=84	=84	=84	=84	=84	=84	=84	=84	=84	=84
8D#X/L	.	.	.	.	.	.	.	4.f#X\	-ſe-	.	.
8C#X/J	.	.	.	.	.	.	.	.	.	.	.
!LO:LB:g=original	!	!	!	!	!	!	!	!	!	!	!
8D#X/L	.	.	.	.	.	.	.	.	.	.	.
8BB/J	.	.	.	.	.	.	.	8b\	-ri-	.	.
=85	=85	=85	=85	=85	=85	=85	=85	=85	=85	=85	=85
8E\L	.	4.ee\	4.ee\	.	.	.	.	4.g\	-cor-	.	.
8F#X\	.	.	.	.	.	.	.	.	.	.	.
8G\	6	.	.	.	.	.	.	.	.	.	.
8E\J	.	8gg\	8gg\	.	.	.	.	8g\	-di-	.	.
=86	=86	=86	=86	=86	=86	=86	=86	=86	=86	=86	=86
8D#X/L	6	4.ff#X\	4.ff#X\	.	.	.	.	4.f#X,\	-a	.	.
8C#X/	.	.	.	.	.	.	.	.	.	.	.
8D#X/	.	.	.	.	.	.	.	.	.	.	.
8BB/J	#	8bb\	8bb\	.	.	.	.	8f#\	mi-	.	.
!	!	!	!LO:LB:g=original	!	!	!	!	!	!	!	!
=87	=87	=87	=87	=87	=87	=87	=87	=87	=87	=87	=87
!	!	!	!	!LO:N:vis=00	!	!LO:N:vis=00	!	!	!	!LO:N:vis=0	!
8E\L	.	4.gg\	4.gg\	0r	.	0r	.	4.e\	-ſe-	0r	.
8F#X\	.	.	.	.	.	.	.	.	.	.	.
8G\	6	.	.	.	.	.	.	.	.	.	.
8E\J	.	8ee\	8ee\	.	.	.	.	8g\	-ri-	.	.
!	!	!	!	!	!	!	!	!LO:LB:g=original	!	!	!
=88	=88	=88	=88	=88	=88	=88	=88	=88	=88	=88	=88
8D#X/L	6	4ff#X\	4ff#X\	.	.	.	.	4f#X\	-cor-	.	.
8C#X/	.	.	.	.	.	.	.	.	.	.	.
8D#X/	.	4r	4r	.	.	.	.	8f#\	-di-	.	.
8BB/J	#	.	.	.	.	.	.	8b\	-a	.	.
=89	=89	=89	=89	=89	=89	=89	=89	=89	=89	=89	=89
!	!	!LO:N:vis=00	!LO:N:vis=00	!	!	!	!	!	!	!	!
!	!	!LO:TX:a:t=3	!	!	!	!	!	!	!	!	!
8E\L	.	0r	0r	.	.	.	.	2g\	e-	.	.
8F#X\	.	.	.	.	.	.	.	.	.	.	.
8G\	6	.	.	.	.	.	.	.	.	.	.
8E\J	.	.	.	.	.	.	.	.	.	.	.
=90	=90	=90	=90	=90	=90	=90	=90	=90	=90	=90	=90
8D#X/L	6	.	.	.	.	.	.	4f#X,\	-jus	.	.
8C#X/	.	.	.	.	.	.	.	.	.	.	.
8D#X/	.	.	.	.	.	.	.	8b\	A-	.	.
8BB/J	.	.	.	.	.	.	.	8b\	-pro-	.	.
=91	=91	=91	=91	=91	=91	=91	=91	=91	=91	=91	=91
!	!	!	!	!LO:N:vis=00	!	!LO:N:vis=00	!	!	!	!LO:N:vis=0	!
8C/L	7	.	.	0r	.	0r	.	4b\	-ge-	0r	.
8BB/	.	.	.	.	.	.	.	.	.	.	.
8C/	6	.	.	.	.	.	.	8a\	-ni-	.	.
8AA/J	.	.	.	.	.	.	.	8a,\	-e	.	.
=92	=92	=92	=92	=92	=92	=92	=92	=92	=92	=92	=92
8BB/L	7	.	.	.	.	.	.	4a\	in	.	.
8AA/J	6	.	.	.	.	.	.	.	.	.	.
8BB/L	.	.	.	.	.	.	.	4g\	pro-	.	.
8GG/J	.	.	.	.	.	.	.	.	.	.	.
!LO:LB:g=original	!	!	!	!	!	!	!	!	!	!	!
=93	=93	=93	=93	=93	=93	=93	=93	=93	=93	=93	=93
!	!	!LO:N:vis=00	!LO:N:vis=00	!	!	!	!	!	!	!	!
8AA/L	7	0r	0r	.	.	.	.	4g\	-ge-	.	.
8C/	.	.	.	.	.	.	.	.	.	.	.
8D/	#	.	.	.	.	.	.	4f#X\	-ni-	.	.
8C/J	.	.	.	.	.	.	.	.	.	.	.
=94	=94	=94	=94	=94	=94	=94	=94	=94	=94	=94	=94
8BB/L	6	.	.	.	.	.	.	4g,\	-es	.	.
8AA/	.	.	.	.	.	.	.	.	.	.	.
8BB/	.	.	.	.	.	.	.	4b\	ti-	.	.
8GG/J	.	.	.	.	.	.	.	.	.	.	.
=95	=95	=95	=95	=95	=95	=95	=95	=95	=95	=95	=95
!	!	!	!	!LO:N:vis=00	!	!LO:N:vis=00	!	!	!	!LO:TX:a:t=P:problem= brak 4 pustych taktów wpisanych w źródle	!
!	!	!	!	!	!	!	!	!	!	!LO:N:vis=0	!
4C/	.	.	.	0r	.	0r	.	4e\	-men-	0r	.
4AA/	6|	.	.	.	.	.	.	8f#X\	-ti-	.	.
.	.	.	.	.	.	.	.	8e\	-bus	.	.
=96	=96	=96	=96	=96	=96	=96	=96	=96	=96	=96	=96
4.BB/	.	.	.	.	.	.	.	8d#X/	e-	.	.
.	.	.	.	.	.	.	.	8B/	-um	.	.
!	!	!	!	!	!	!	!	!LO:PB:g=original	!	!	!
.	.	.	.	.	.	.	.	4b\	ti-	.	.
8BB/	.	.	.	.	.	.	.	.	.	.	.
=97	=97	=97	=97	=97	=97	=97	=97	=97	=97	=97	=97
!	!	!LO:N:vis=0	!LO:N:vis=0	!	!	!	!	!	!	!	!
4C/	.	1r	1r	.	.	.	.	8e\L	-men-	.	.
.	.	.	.	.	.	.	.	8g\	.	.	.
4AA/	6|	.	.	.	.	.	.	8f#X\	.	.	.
.	.	.	.	.	.	.	.	8e\J	.	.	.
=98	=98	=98	=98	=98	=98	=98	=98	=98	=98	=98	=98
!LO:TX:a:t=P:problem= mixed beam	!	!	!	!	!	!	!	!	!	!	!
8BB\L	#	.	.	.	.	.	.	4d#X\	.	.	.
8B\	.	.	.	.	.	.	.	.	.	.	.
8A\	6	.	.	.	.	.	.	8e\	-ti-	.	.
8F#X\J	6|	.	.	.	.	.	.	8f#X,\	-bus	.	.
=99	=99	=99	=99	=99	=99	=99	=99	=99	=99	=99	=99
!LO:TX:a:t=P:problem= mixed beam	!	!	!	!	!	!	!	!	!	!	!
8E\L	.	2r	2r	2r	.	2r	.	(4g\	e-	2r	.
8G\	.	.	.	.	.	.	.	.	.	.	.
8B\	.	.	.	.	.	.	.	4f#X\)	.	.	.
8BB\J	#	.	.	.	.	.	.	.	.	.	.
=100	=100	=100	=100	=100	=100	=100	=100	=100	=100	=100	=100
8E\L	.	8r	8r	8r	.	8r	.	8e,\	-um	8r	.
!LO:TX:b:i:t=Tut	!	!	!	!	!	!	!	!	!	!	!
8G\	.	8dd\L	8dd\L	8G\	Fe-	8B\	Fe-	8d\	fe-	8dd\	Fe-
8G\	.	8dd\	8dd\	8G\	-cit	8B\	-cit	8d\	-cit	8dd\	-cit
8G\J	.	8dd\J	8dd\J	8G\	po-	8B\	po-	8d\	po-	8dd\	po-
=101	=101	=101	=101	=101	=101	=101	=101	=101	=101	=101	=101
8F#X\L	6	8dd\L	8dd\L	8F#X\	-ten-	8A/	-ten-	8d\	-ten-	8dd\	-ten-
8E\	.	8dd\	8dd\	8E\	-ti-	8A/	-ti-	8d\	-ti-	8dd\	-ti-
8F#\	.	8dd\	8dd\	8F#X\	-am	8A,/	-am	8d\	-am	8dd,\	-am
8D\J	.	8dd\J	8dd\J	8D/	in	8A/	in	8f#X\	in	8dd\	in
=102	=102	=102	=102	=102	=102	=102	=102	=102	=102	=102	=102
8G\L	.	8b\L	8b\L	8G\	bra-	8B\	bra-	8g\	bra-	8dd\	bra-
8D\J	#	8dd\	8dd\	8D/	-hi-	8A/	-hi-	8f#X\	-hi-	8dd\	-hi-
8GG/L	.	8b\	8b\	8GG/	-o	8B,\	-o	8g\	-o	8dd,\	-o
8D/J	#	8dd\J	8dd\J	8D/	in	8A/	in	8f#X\	in	8dd\	in
=103	=103	=103	=103	=103	=103	=103	=103	=103	=103	=103	=103
!	!	!LO:TX:a:t=P:problem= mixed beam	!LO:TX:a:t=P:problem= mixed beam	!	!	!	!	!	!	!	!
8G\L	.	8b\L	8b\L	8G\	bra-	8B\	bra-	8g\	bra-	8dd\	bra-
!	!	!	!	!	!	!	!	!LO:LB:g=original	!	!	!
8D\J	#	8dd\	8dd\	8D/	-hi-	8A/	-hi-	8f#X\	-hi-	8dd\	-hi-
!LO:LB:g=original	!	!	!	!	!	!	!	!	!	!	!
4GG/	.	8b\	8b\	4GG/	-o	4B\	-o	4g,\	-o	4dd\	-o
.	.	8d/J	8d/J	.	.	.	.	.	.	.	.
=104	=104	=104	=104	=104	=104	=104	=104	=104	=104	=104	=104
2r	.	8g/L	8g/L	2r	.	2r	.	2r	.	2r	.
!	!	!LO:TX:b:t=d	!	!	!	!	!	!	!	!	!
.	.	8d/J	8d/J	.	.	.	.	.	.	.	.
!	!	!LO:LB:g=original	!	!	!	!	!	!	!	!	!
.	.	8G/L	8G/L	.	.	.	.	.	.	.	.
.	.	8d/J	8d/J	.	.	.	.	.	.	.	.
!	!	!	!	!LO:TX:a:t=P:problem= brak kreski taktowej	!	!	!	!	!	!	!
=105	=105	=105	=105	=105-z	=105	=105	=105	=105	=105	=105	=105
8r	.	8g/L	8g/L	8r	.	8r	.	8r	.	8r	.
8c\L	.	8g/	8g/	8c\	Fe-	8c\	Fe-	8g\	Fe-	8ee\	Fe-
8c\	.	8g/	8g/	8c\	-cit	8c\	-cit	8g\	-cit	8ee\	-cit
!	!	!	!	!LO:LB:g=original	!	!	!	!	!	!	!
8c\J	.	8g/J	8g/J	8c\	po-	8c\	po-	8g\	po-	8ee\	po-
!	!	!	!	!	!	!LO:LB:g=original	!	!	!	!LO:LB:g=original	!
=106	=106	=106	=106	=106	=106	=106	=106	=106	=106	=106	=106
8B\L	6	8g/L	8g/L	8B\	-ten-	8d\	-ten-	8g\	-ten-	8dd\	-ten-
8A\	.	8g/	8g/	8A\	-ti-	8c\	-ti-	8g\	-ti-	8cc\	-ti-
8B\	.	8g/	8g/	8B,\	-am	8d,\	-am	8g,\	-am	8dd,\	-am
8G\J	.	8g/J	8g/J	8G\	in	8c\	in	8g\	in	8dd\	in
=107	=107	=107	=107	=107	=107	=107	=107	=107	=107	=107	=107
8c\L	.	8e/L	8e/L	8c\	bra-	8c\	bra-	8g\	bra-	8ee\	bra-
8G\J	.	8g/	8g/	8G\	-hi-	8B\	-hi-	8g\	-hi-	8dd\	-hi-
!LO:TX:a:t=P:problem= mixed beam	!	!	!	!	!	!	!	!	!	!	!
8C/L	.	8e/	8e/	8C,/	-o	8c\	-o	8g\	-o	8ee,\	-o
8G\J	.	8g/J	8g/J	8G\	in	8B\	in	8g\	in	8dd\	in
!	!	!	!LO:LB:g=original	!	!	!	!	!	!	!	!
=108	=108	=108	=108	=108	=108	=108	=108	=108	=108	=108	=108
8c\L	.	8e/L	8e/L	8c\	bra-	8c\	bra-	8g\	bra-	8ee\	bra-
8G\J	.	8g/	8g/	8G\	-hi-	8B\	-hi-	8g\	-hi-	8dd\	-hi-
4C/	.	8e/	8e/	4C/	-o	4c\	-o	4g\	-o	4ee\	-o
.	.	8g/J	8g/J	.	.	.	.	.	.	.	.
=109	=109	=109	=109	=109	=109	=109	=109	=109	=109	=109	=109
2r	.	8cc\L	8cc\L	2r	.	2r	.	2r	.	2r	.
.	.	8g\J	8g\J	.	.	.	.	.	.	.	.
.	.	8c/L	8c/L	.	.	.	.	.	.	.	.
.	.	8g/J	8g/J	.	.	.	.	.	.	.	.
!	!	!	!	!	!	!	!	!LO:TX:a:t=P:problem= brak kreski taktowej	!	!	!
=110	=110	=110	=110	=110	=110	=110	=110	=110-z	=110	=110	=110
4r	.	8cc\L	8cc\L	4r	.	4r	.	4r	.	4r	.
.	.	8cc\	8cc\	.	.	.	.	.	.	.	.
8r	.	8cc\	8cc\	8r	.	8r	.	8r	.	8r	.
8E\	6	8cc\J	8cc\J	8E\	in	8c\	in	8g\	in	8gg\	in
=111	=111	=111	=111	=111	=111	=111	=111	=111	=111	=111	=111
!LO:TX:a:t=P:problem= mixed beam	!	!	!	!	!	!	!	!	!	!	!
8F\L	.	16cc\LL	16cc\LL	8F\	bra-	8c\	bra-	8a\	bra-	8ff\	bra-
.	.	16dd\	16dd\	.	.	.	.	.	.	.	.
8A\	.	16ee\	16ee\	16C/	-hi-	16c\	-hi-	16g\	-hi-	16ee\	-hi-
!	!	!	!	!	!	!	!	!LO:LB:g=original	!	!	!
.	.	16ff\JJ	16ff\JJ	16C/	-o	16c\	-o	16g,\	-o	16dd\	-o
!	!	!	!	!LO:TX:a:t=P:problem= mixed beam	!	!	!	!	!	!	!
8G\	.	8dd\L	8dd\L	(8G\L	ſu-	4B\	ſu-	4g\	ſu-	4dd\	ſu-
8GG/J	.	8gg\J	8gg\J	8GG/J)	.	.	.	.	.	.	.
=112	=112	=112	=112	=112	=112	=112	=112	=112	=112	=112	=112
!LO:TX:a:t=P:problem= mixed beam	!	!	!	!	!	!	!	!	!	!	!
8C/L	.	8ee\L	8ee\L	8C,/	-o	8c,\	-o	8g,\	-o	8cc,\	-o
8c\	.	8ee\	8ee\	8c\	di-	8c\	diſ-	8g\	diſ-	8ee\	diſ-
!	!	!	!	!LO:LB:g=original	!	!	!	!	!	!	!
8G#X\	6	8ee\	8ee\	(8G\	-ſper-	(8B\L	-per-	(8b\L	-per-	4ee\	-per-
8A\J	.	8ee\J	8ee\J	8A\)	.	8c\J)	.	8a\J)	.	.	.
!	!	!LO:LB:g=original	!	!	!	!	!	!	!	!LO:LB:g=original	!
=113	=113	=113	=113	=113	=113	=113	=113	=113	=113	=113	=113
!	!	!	!	!LO:SIC:l:s=-sit:v	!	!	!	!	!	!	!
8E\L	#	8ee\L	8ee\L	8E,\	-sis	8B\	-ſit	8g\	-sit	8ee\	-sit
!	!	!	!	!	!	!LO:LB:g=original	!	!	!	!	!
8A\J	.	8ee\	8ee\	8A\	ſu-	8c\	ſu-	8g\	diſ-	8ee\	ſu-
8G#X\L	6	8ee\	8ee\	(8G#X\L	-per-	(8B\L	-per-	8b\	-per-	4ee\	-per-
8A\J	.	8ee\J	8ee\J	8A\J)	.	8c\J)	.	8a\	.	.	.
=114	=114	=114	=114	=114	=114	=114	=114	=114	=114	=114	=114
8E\L	.	8ee\L	8ee\L	8E,\	-bos	8B,\	-bos	8g#X\	-sit	8ee,\	-bos
8A\	.	8ee\	8ee\	8A\	ſu-	8c\	ſu-	8a\	ſu-	8ee\	ſu-
8G#X\	6	8ee\	8ee\	8G#X\	-per-	8B\	-per-	8b\	-per-	8ee\	-per-
8A\J	.	8ee\J	8ee\J	8A,\	-bos	8A/	-bos	8g#\	-bos	8cc\	-bos
!LO:LB:g=original	!	!	!	!	!	!	!	!	!	!	!
=115	=115	=115	=115	=115	=115	=115	=115	=115	=115	=115	=115
8E\L	.	8ee\L	8ee\L	8E\	men-	8G#X/	men-	8e\	men-	8f/	men-
8C\J	6	8ee\	8ee\	8C/	-te	8A/	-te	8e\	-te	8cc\	-te
!LO:TX:a:t=P:problem= mixed beam	!	!	!	!	!	!	!	!	!	!	!
8D\L	.	8dd\	8dd\	8D/	cor-	8A/	Cor-	8f\	Cor-	16a\LL	cor-
.	.	.	.	.	.	.	.	.	.	16b\JJ	.
8AA/J	.	8cc\J	8cc\J	8AA/	-dis	8A/	-dis	8e\	-dis	16cc\LL	-dis
.	.	.	.	.	.	.	.	.	.	16dd\JJ	.
=116	=116	=116	=116	=116	=116	=116	=116	=116	=116	=116	=116
8E\L	#	2b/	2b/	2E\	ſu-	4A/	ſu-	2e\	ſu-	2b\	ſu-
8D\J	.	.	.	.	.	.	.	.	.	.	.
!LO:TX:a:t=P:problem= mixed beam	!	!	!	!	!	!	!	!	!	!	!
8E\L	#	.	.	.	.	4G#X/	.	.	.	.	.
8EE/J	.	.	.	.	.	.	.	.	.	.	.
=117	=117	=117	=117	=117	=117	=117	=117	=117	=117	=117	=117
4AA/	.	8a/L	8a/L	4AA/	-i	4A/	-i	4e\	-i	4a\	-i
.	.	8cc/J	8b/J	.	.	.	.	.	.	.	.
!LO:TX:b:i:t=Solo	!	!	!	!	!	!	!	!	!	!	!
8r	.	8cc\L	8cc\L	4r	.	4r	.	4r	.	4r	.
8E\	6	16ee\L	16ee\L	.	.	.	.	.	.	.	.
.	.	16cc\JJ	16cc\JJ	.	.	.	.	.	.	.	.
=118	=118	=118	=118	=118	=118	=118	=118	=118	=118	=118	=118
!	!	!	!	!LO:N:vis=0	!	!LO:N:vis=00	!	!LO:N:vis=00	!	!LO:N:vis=00	!
4F\	6	8a\L	8a\L	1r	.	0r	.	0r	.	0r	.
.	.	8dd\J	8dd\J	.	.	.	.	.	.	.	.
!	!	!	!LO:LB:g=original	!	!	!	!	!	!	!	!
8r	.	8dd\L	8dd\L	.	.	.	.	.	.	.	.
8D\	.	16ff\L	16ff\L	.	.	.	.	.	.	.	.
.	.	16dd\JJ	16dd\JJ	.	.	.	.	.	.	.	.
=119	=119	=119	=119	=119	=119	=119	=119	=119	=119	=119	=119
4G\	.	8b\L	8b\L	.	.	.	.	.	.	.	.
.	.	8ee\J	8ee\J	.	.	.	.	.	.	.	.
8r	.	8ee\L	8ee\L	.	.	.	.	.	.	.	.
8E\	.	16gg\L	16gg\L	.	.	.	.	.	.	.	.
.	.	16ee\JJ	16ee\JJ	.	.	.	.	.	.	.	.
=120	=120	=120	=120	=120	=120	=120	=120	=120	=120	=120	=120
4A\	6	8cc\L	8cc\L	2r	.	.	.	.	.	.	.
.	.	8ff\	8ff\	.	.	.	.	.	.	.	.
8r	.	8ff\	8ff\	.	.	.	.	.	.	.	.
8F\	.	8ff\J	8ff\J	.	.	.	.	.	.	.	.
=121	=121	=121	=121	=121	=121	=121	=121	=121	=121	=121	=121
8G\L	7	8ff\L	8ff\L	4r	.	.	.	.	.	.	.
8C\J	.	16ee\L	16ee\L	.	.	.	.	.	.	.	.
.	.	16dd\JJ	16dd\JJ	.	.	.	.	.	.	.	.
!LO:TX:a:t=P:problem= mixed beam	!	!	!	!	!	!	!	!	!	!	!
8G\L	6 4	8ee\L	8ee\L	8r	.	.	.	.	.	.	.
8GG/J	5 3	16dd\L	16dd\L	8G\	De-	.	.	.	.	.	.
.	.	16cc\JJ	16cc\JJ	.	.	.	.	.	.	.	.
!	!	!LO:LB:g=original	!	!	!	!	!	!	!	!	!
=122	=122	=122	=122	=122	=122	=122	=122	=122	=122	=122	=122
!LO:TX:b:i:t=Baſso	!	!	!	!	!	!LO:N:vis=00	!	!LO:N:vis=00	!	!LO:N:vis=00	!
8C/L	.	4cc\	4cc\	8c\	-po-	0r	.	0r	.	0r	.
8D/	.	.	.	8B\	-ſu-	.	.	.	.	.	.
!	!	!	!	!LO:LB:g=original	!	!	!	!	!	!	!
8E/	.	4r	4r	8c,\	-it	.	.	.	.	.	.
8BB/J	6	.	.	8G\	po-	.	.	.	.	.	.
=123	=123	=123	=123	=123	=123	=123	=123	=123	=123	=123	=123
8C/L	.	4r	4r	8E\L	-ten-	.	.	.	.	.	.
8D/	.	.	.	16D\L	.	.	.	.	.	.	.
.	.	.	.	16E\JJ	.	.	.	.	.	.	.
8E/	.	8r	8r	8C/	-tes	.	.	.	.	.	.
8BB/J	6	8g/	8g/	8r	.	.	.	.	.	.	.
=124	=124	=124	=124	=124	=124	=124	=124	=124	=124	=124	=124
!	!	!	!LO:TX:a:t=P:problem= mixed beam	!	!	!	!	!	!	!	!
8C/L	.	8cc\L	8cc\L	2r	.	.	.	.	.	.	.
8D/	.	8b\	8b\	.	.	.	.	.	.	.	.
8E/	.	8cc\	8cc\	.	.	.	.	.	.	.	.
8BB/J	6	8g\J	8g/J	.	.	.	.	.	.	.	.
!LO:LB:g=original	!	!	!	!	!	!	!	!	!	!	!
=125	=125	=125	=125	=125	=125	=125	=125	=125	=125	=125	=125
8C/L	.	8e/L	8e/L	4r	.	.	.	.	.	.	.
8D/	.	16d/L	16d/L	.	.	.	.	.	.	.	.
.	.	16e/JJ	16e/JJ	.	.	.	.	.	.	.	.
8E/	.	8c/	8c/	8r	.	.	.	.	.	.	.
8BB/J	6	8r	8r	8G\	De-	.	.	.	.	.	.
=126	=126	=126	=126	=126	=126	=126	=126	=126	=126	=126	=126
!	!	!LO:N:vis=00	!LO:N:vis=00	!	!	!LO:N:vis=00	!	!LO:N:vis=00	!	!LO:N:vis=0	!
8C/L	.	0r	0r	8c\	-po-	0r	.	0r	.	0r	.
8D/	.	.	.	8B\	-ſu-	.	.	.	.	.	.
8E/	.	.	.	8c\	-it	.	.	.	.	.	.
8BB/J	6	.	.	8G\	po-	.	.	.	.	.	.
=127	=127	=127	=127	=127	=127	=127	=127	=127	=127	=127	=127
8C/L	.	.	.	8E\L	-ten-	.	.	.	.	.	.
8D/	.	.	.	16D\L	.	.	.	.	.	.	.
.	.	.	.	16E\JJ	.	.	.	.	.	.	.
8E/	.	.	.	8C/	-tes	.	.	.	.	.	.
8BB/J	6	.	.	8G\	po-	.	.	.	.	.	.
=128	=128	=128	=128	=128	=128	=128	=128	=128	=128	=128	=128
8C/L	.	.	.	8G\	-ten-	.	.	.	.	.	.
8BB/	.	.	.	16A\	-tes	.	.	.	.	.	.
.	.	.	.	16B\	de	.	.	.	.	.	.
8C/	7	.	.	4c\	ſe-	.	.	.	.	.	.
8D/J	#	.	.	.	.	.	.	.	.	.	.
=129	=129	=129	=129	=129	=129	=129	=129	=129	=129	=129	=129
4GG/	.	.	.	8B\	-de	.	.	.	.	.	.
!	!	!	!	!LO:LB:g=original	!	!	!	!	!	!	!
.	.	.	.	8G\	Et	.	.	.	.	.	.
8r	.	.	.	8G\	ex-	.	.	.	.	.	.
8E\	6	.	.	8G\	-al-	.	.	.	.	.	.
=130	=130	=130	=130	=130	=130	=130	=130	=130	=130	=130	=130
!	!	!LO:N:vis=0	!LO:N:vis=0	!	!	!LO:N:vis=00	!	!LO:N:vis=00	!	!LO:N:vis=00	!
4F\	.	1r	1r	16A\LL	-ta-	0r	.	0r	.	0r	.
.	.	.	.	16G\	.	.	.	.	.	.	.
.	.	.	.	16F\	.	.	.	.	.	.	.
.	.	.	.	16G\JJ	.	.	.	.	.	.	.
8r	.	.	.	16A\LL	.	.	.	.	.	.	.
.	.	.	.	16G\	.	.	.	.	.	.	.
8F\	.	.	.	16A\	.	.	.	.	.	.	.
.	.	.	.	16B\JJ	.	.	.	.	.	.	.
=131	=131	=131	=131	=131	=131	=131	=131	=131	=131	=131	=131
!	!	!	!	!LO:TX:a:t=P:problem= mixed beam	!	!	!	!	!	!	!
4E\	6	.	.	8c\L	.	.	.	.	.	.	.
.	.	.	.	16C/L	.	.	.	.	.	.	.
.	.	.	.	16D/JJ	.	.	.	.	.	.	.
8r	.	.	.	16E\LL	.	.	.	.	.	.	.
.	.	.	.	16F\	.	.	.	.	.	.	.
8E\	.	.	.	16G\	.	.	.	.	.	.	.
.	.	.	.	16A\JJ	.	.	.	.	.	.	.
=132	=132	=132	=132	=132	=132	=132	=132	=132	=132	=132	=132
8D/L	.	2r	2r	8F\	.	.	.	.	.	.	.
8C/J	.	.	.	16E\LL	-vit	.	.	.	.	.	.
.	.	.	.	16D\JJ	.	.	.	.	.	.	.
!LO:TX:a:t=P:problem= mixed beam	!	!	!	!	!	!	!	!	!	!	!
8G\L	.	.	.	8.D/	hu-	.	.	.	.	.	.
8GG/J	.	.	.	.	.	.	.	.	.	.	.
.	.	.	.	16D/	-mi-	.	.	.	.	.	.
=133	=133	=133	=133	=133	=133	=133	=133	=133	=133	=133	=133
4C/	.	8r	8r	4C/	-les	.	.	.	.	.	.
.	.	8cc\	8cc\	.	.	.	.	.	.	.	.
8r	.	8cc\L	8cc\L	4r	.	.	.	.	.	.	.
8AA/	6	16ff\L	16ff\L	.	.	.	.	.	.	.	.
.	.	16cc\JJ	16cc\JJ	.	.	.	.	.	.	.	.
!LO:LB:g=original	!	!	!LO:LB:g=original	!	!	!	!	!	!	!	!
=134	=134	=134	=134	=134	=134	=134	=134	=134	=134	=134	=134
!	!	!	!	!LO:N:vis=0	!	!LO:N:vis=0	!	!LO:N:vis=0	!	!LO:N:vis=00	!
4BB-X/	.	8dd\L	8dd\L	1r	.	1r	.	1r	.	0r	.
.	.	8dd\J	8dd\J	.	.	.	.	.	.	.	.
8r	.	8dd\L	8dd\L	.	.	.	.	.	.	.	.
8GG/	-	16gg\L	16gg\L	.	.	.	.	.	.	.	.
.	.	16dd\JJ	16dd\JJ	.	.	.	.	.	.	.	.
=135	=135	=135	=135	=135	=135	=135	=135	=135	=135	=135	=135
4C/	.	8ee\L	8ee\L	.	.	.	.	.	.	.	.
.	.	8ee\J	8ee\J	.	.	.	.	.	.	.	.
8r	.	8ee\L	8ee\L	.	.	.	.	.	.	.	.
8AA/	.	16aa\L	16aa\L	.	.	.	.	.	.	.	.
.	.	16ee\JJ	16ee\JJ	.	.	.	.	.	.	.	.
=136	=136	=136	=136	=136	=136	=136	=136	=136	=136	=136	=136
8D/L	.	8ff\L	8ff\L	2r	.	2r	.	2r	.	.	.
8BB-X/J	.	8gg\J	8gg\J	.	.	.	.	.	.	.	.
8C/L	.	8cc\L	8cc\L	.	.	.	.	.	.	.	.
8CC/J	.	8ee\J	8ee\J	.	.	.	.	.	.	.	.
!	!	!	!	!	!	!	!	!LO:LB:g=original	!	!	!
=137	=137	=137	=137	=137	=137	=137	=137	=137	=137	=137	=137
!LO:TX:a:t=P:problem= mixed beam	!	!	!	!	!	!	!	!	!	!	!
8FF/L	.	8ff\	8ff\	8r	.	8r	.	8r	.	.	.
!LO:TX:b:i:t=Tut	!	!	!	!	!	!	!	!	!	!	!
8F\	.	8r	8r	8F\	E-	8c\	E-	8a\	E-	.	.
8E\	6	4r	4r	8E\	-su-	8c\	-su-	8g\	-su-	.	.
8D\J	6	.	.	8D/	-ri-	8B\	-ri-	8f\	-ri-	.	.
!	!	!LO:LB:g=original	!	!LO:LB:g=original	!	!LO:LB:g=original	!	!	!	!	!
=138	=138	=138	=138	=138	=138	=138	=138	=138	=138	=138	=138
4C/	.	8r	8r	8C/	-en-	8c\	-en-	8e\	-en-	4r	.
.	.	8cc\L	8cc\L	8C/	-tes	8G/	-tes	8e\	-tes	.	.
4r	.	8cc\	8cc\	4r	.	4r	.	4r	.	8r	.
.	.	8cc\J	8cc\J	.	.	.	.	.	.	8cc\	E-
=139	=139	=139	=139	=139	=139	=139	=139	=139	=139	=139	=139
2r	.	8a/L	8a/L	2r	.	2r	.	2r	.	4ff\	-ſu-
.	.	8b/	8b/	.	.	.	.	.	.	.	.
.	.	8g/	8g/	.	.	.	.	.	.	4ee\	-ri-
.	.	8a/J	8a/J	.	.	.	.	.	.	.	.
!	!	!	!	!	!	!LO:TX:a:t=P:problem= brak kreski taktowej	!	!LO:TX:a:t=P:problem= brak kreski taktowej	!	!	!
=140	=140	=140	=140	=140	=140	=140-z	=140	=140	=140	=140	=140
8r	.	8f/	8f/	8r	.	8r	.	8r	.	8ff\	-en-
!	!	!	!	!	!	!	!	!LO:TX:a:t=P:problem=przekreślony/wymazany tekst	!	!	!
8F\L	.	8r	8r	8F\	Im-	8c\	im-	8a\	Eim-	8cc\	-tes
!	!	!	!	!	!	!	!	!	!	!LO:LB:g=original	!
8E\	6	4r	4r	8E\	-ple-	8c\	-ple-	8g\	-ple-	4r	.
8D\J	6	.	.	8D/	-vit	8B\	-vit	8f\	-vit	.	.
=141	=141	=141	=141	=141	=141	=141	=141	=141	=141	=141	=141
4C/	.	8r	8r	8C/	bo-	8c\	bo-	8e\	bo-	4r	.
.	.	8cc\L	8cc\L	8C/	-nis	8G/	-nis	8e\	-nis	.	.
4r	.	8cc\	8cc\	4r	.	4r	.	4r	.	4cc\	E-
.	.	8cc\J	8cc\J	.	.	.	.	.	.	.	.
=142	=142	=142	=142	=142	=142	=142	=142	=142	=142	=142	=142
2r	.	8a/L	8a/L	2r	.	2r	.	2r	.	4ff\	-ſu-
.	.	8b/	8b/	.	.	.	.	.	.	.	.
.	.	8g/	8g/	.	.	.	.	.	.	4ee\	-ri-
.	.	8a/J	8a/J	.	.	.	.	.	.	.	.
!LO:TX:b:i:t=Cito Verte	!	!	!	!	!	!	!	!LO:TX:a:t=P:problem= brak kreski taktowej	!	!	!
!LO:PB:g=original	!	!	!	!	!	!	!	!	!	!	!
=143	=143	=143	=143	=143	=143	=143	=143	=143-z	=143	=143	=143
8r	.	8f/	8f/	8r	.	8r	.	8r	.	8ff\	-en-
8F\L	.	8r	8r	8F\	et	8c\	et	8a\	et	8cc\	-tes
8E\	.	4r	4r	8E\	di-	8c\	di-	8g\	di-	4r	.
8D\J	.	.	.	8D/	-vi-	8B\	-vi-	8f\	-vi-	.	.
!	!	!	!LO:LB:g=original	!	!	!	!	!	!	!	!
=144	=144	=144	=144	=144	=144	=144	=144	=144	=144	=144	=144
4C/	.	8r	8r	4C/	-tes	4c\	-tes	4e\	-tes	8r	.
.	.	8cc\L	8cc\L	.	.	.	.	.	.	8ee\	et
8r	.	8cc\	8cc\	8r	.	8r	.	8r	.	8ee\	di-
8c\	.	8cc\J	8cc\J	8c\	et	8c\	et	8g\	et	8ee\	-vi-
=145	=145	=145	=145	=145	=145	=145	=145	=145	=145	=145	=145
4A\	6	8ff\L	8ff\L	8A\	di-	8c\	di-	8a\	di-	4ff\	-tes
.	.	8ee\	8ee\	8A\	-vi-	8c\	-vi-	8a\	-vi-	.	.
4B-X\	.	8ff\	8ff\	8B-X\	-tes	8d,\	-tes	8f,\	-tes	4dd\	di-
.	.	8dd\J	8dd\J	8B-\	di-	8d\	di-	8f\	di-	.	.
!	!	!	!	!LO:LB:g=original	!	!	!	!LO:LB:g=original	!	!	!
=146	=146	=146	=146	=146	=146	=146	=146	=146	=146	=146	=146
4G\	6	4ee\	4ee\	4G\	-mi-	4B-X\	-mi-	4g\	-mi-	4ee\	-mi-
!	!	!	!LO:TX:a:t=P:problem= mixed beam	!	!	!LO:LB:g=original	!	!	!	!	!
4F\	.	8ff\L	8ff\L	8F,\	-ſit	8A/	-ſit	8a,\	-ſit	8ff\	-ſit
.	.	8a\J	8a/J	8F\	in-	8c\	in-	8f\	in-	8a\	in-
!	!	!LO:PB:g=original	!	!	!	!	!	!	!	!	!
=147	=147	=147	=147	=147	=147	=147	=147	=147	=147	=147	=147
2C/	4	4g/	4g/	2C/	-a-	2c\	-a-	(4f\	-a-	2g/	-a-
.	3	4cc\	4cc\	.	.	.	.	4e\)	.	.	.
=148	=148	=148	=148	=148	=148	=148	=148	=148	=148	=148	=148
!	!	!LO:TX:a:t=P:problem= mixed beam	!LO:TX:a:t=P:problem= mixed beam	!	!	!	!	!	!	!	!
4FF/	.	8a/L	8a/L	4F\	-nes	4c\	-nes	4f\	-nes	4a\	-nes
.	.	8ff\J	8ff\J	.	.	.	.	.	.	.	.
8r	.	8ff\L	8ff\L	4r	.	4r	.	4r	.	4r	.
8AA/	6	16aa\L	16aa\L	.	.	.	.	.	.	.	.
.	.	16ff\JJ	16ff\JJ	.	.	.	.	.	.	.	.
=149	=149	=149	=149	=149	=149	=149	=149	=149	=149	=149	=149
!	!	!	!	!LO:N:vis=00	!	!LO:N:vis=0	!	!LO:N:vis=00	!	!LO:N:vis=00	!
4BB-X/	6	8dd\L	8dd\L	0r	.	1r	.	0r	.	0r	.
.	.	8gg\J	8gg\J	.	.	.	.	.	.	.	.
8r	.	8gg\L	8gg\L	.	.	.	.	.	.	.	.
8GG/	-	16bb-X\L	16bb-X\L	.	.	.	.	.	.	.	.
.	.	16gg\JJ	16gg\JJ	.	.	.	.	.	.	.	.
=150	=150	=150	=150	=150	=150	=150	=150	=150	=150	=150	=150
4C/	6	8ee\L	8ee\L	.	.	.	.	.	.	.	.
.	.	8aa\J	8aa\J	.	.	.	.	.	.	.	.
8r	.	8aa\L	8aa\L	.	.	.	.	.	.	.	.
8AA/	.	16ccc\L	16ccc\L	.	.	.	.	.	.	.	.
.	.	16aa\JJ	16aa\JJ	.	.	.	.	.	.	.	.
=151	=151	=151	=151	=151	=151	=151	=151	=151	=151	=151	=151
8D/L	.	8ff\L	8ff\L	.	.	4r	.	.	.	.	.
8BB-X/	.	8gg\	8gg\	.	.	.	.	.	.	.	.
8C/	.	8cc\	8cc\	.	.	8r	.	.	.	.	.
!	!	!	!	!	!	!LO:TX:a:t=Solo	!	!	!	!	!
8CC/J	.	8ee\J	8ee\J	.	.	8c\	ſu-	.	.	.	.
=152	=152	=152	=152	=152	=152	=152	=152	=152	=152	=152	=152
8FF/L	.	8ff\	8ff\	.	.	8A/L	-sce-	.	.	.	.
8C/J	.	8r	8r	.	.	16G/L	.	.	.	.	.
.	.	.	.	.	.	16A/JJ	.	.	.	.	.
!LO:TX:b:i:t=Tenor	!	!	!	!	!	!	!	!	!	!	!
8F\L	.	4r	4r	.	.	8F/	-pit	.	.	.	.
8E\J	.	.	.	.	.	8c\	ſu-	.	.	.	.
!	!	!	!LO:PB:g=original	!	!	!	!	!	!	!	!
=153	=153	=153	=153	=153	=153	=153	=153	=153	=153	=153	=153
!LO:TX:a:t=P:problem=zamazanie koncówki linii	!	!	!	!LO:N:vis=00	!	!	!	!LO:N:vis=00	!	!LO:N:vis=00	!
8F\L	.	2r	2r	0r	.	8f\	-sce-	0r	.	0r	.
8G\J	.	.	.	.	.	8e\	-pit	.	.	.	.
!LO:LB:g=original	!	!	!	!	!	!	!	!	!	!	!
8A\L	.	.	.	.	.	8f\	I-	.	.	.	.
8E\J	6	.	.	.	.	16c\	-sra-	.	.	.	.
.	.	.	.	.	.	16c\	-el	.	.	.	.
=154	=154	=154	=154	=154	=154	=154	=154	=154	=154	=154	=154
8F\L	.	4r	4r	.	.	8A/	pu-	.	.	.	.
8G\	6-	.	.	.	.	16G/LL	-e-	.	.	.	.
.	.	.	.	.	.	16A/JJ	.	.	.	.	.
8A\	.	8r	8r	.	.	8F/	-rum	.	.	.	.
8E\J	6	8cc\	8cc\	.	.	8r	.	.	.	.	.
=155	=155	=155	=155	=155	=155	=155	=155	=155	=155	=155	=155
8F\L	.	8ff\L	8ff\L	.	.	2r	.	.	.	.	.
8G\	6-	8ee\	8ee\	.	.	.	.	.	.	.	.
8A\	.	8ff\	8ff\	.	.	.	.	.	.	.	.
8E\J	6	8cc\J	8cc\J	.	.	.	.	.	.	.	.
!	!	!LO:LB:g=original	!	!	!	!LO:LB:g=original	!	!	!	!	!
=156	=156	=156	=156	=156	=156	=156	=156	=156	=156	=156	=156
8F\L	.	8a/L	8a/L	.	.	4r	.	.	.	.	.
8G\	6-	16g/L	16g/L	.	.	.	.	.	.	.	.
.	.	16a/JJ	16a/JJ	.	.	.	.	.	.	.	.
8A\	.	8f/	8f/	.	.	8r	.	.	.	.	.
8E\J	6	8r	8r	.	.	8c\	ſu-	.	.	.	.
=157	=157	=157	=157	=157	=157	=157	=157	=157	=157	=157	=157
!	!	!LO:N:vis=00	!LO:N:vis=00	!LO:N:vis=00	!	!	!	!LO:N:vis=00	!	!LO:N:vis=00	!
8F\L	.	0r	0r	0r	.	8f\	-sce-	0r	.	0r	.
8G\	6-	.	.	.	.	8e\	-pit	.	.	.	.
8A\	.	.	.	.	.	8f\	I-	.	.	.	.
8E\J	6	.	.	.	.	16c\	-sra-	.	.	.	.
.	.	.	.	.	.	16c\	-el	.	.	.	.
=158	=158	=158	=158	=158	=158	=158	=158	=158	=158	=158	=158
8F\L	.	.	.	.	.	8A/	pu-	.	.	.	.
8G\	6-	.	.	.	.	16G/	-e-	.	.	.	.
.	.	.	.	.	.	16A/	-rum	.	.	.	.
8A\	.	.	.	.	.	8F/	ſu-	.	.	.	.
8E\J	6	.	.	.	.	8F/	-um	.	.	.	.
=159	=159	=159	=159	=159	=159	=159	=159	=159	=159	=159	=159
8F\L	.	.	.	.	.	4d\	re-	.	.	.	.
8G\	6-	.	.	.	.	.	.	.	.	.	.
8A\	.	.	.	.	.	4g\	-cor-	.	.	.	.
8E\J	.	.	.	.	.	.	.	.	.	.	.
=160	=160	=160	=160	=160	=160	=160	=160	=160	=160	=160	=160
8B-X\L	.	.	.	.	.	4c\	-da-	.	.	.	.
8A\	.	.	.	.	.	.	.	.	.	.	.
8B-X\	.	.	.	.	.	8f,\	-tus	.	.	.	.
8G\J	.	.	.	.	.	8f\	Mi-	.	.	.	.
=161	=161	=161	=161	=161	=161	=161	=161	=161	=161	=161	=161
!	!	!LO:N:vis=0	!LO:N:vis=0	!LO:N:vis=00	!	!	!	!LO:N:vis=0	!	!LO:N:vis=0	!
8A\L	.	1r	1r	0r	.	4.B-X\	-ſe-	1r	.	1r	.
8G\	.	.	.	.	.	.	.	.	.	.	.
8A\	6	.	.	.	.	.	.	.	.	.	.
8F\J	.	.	.	.	.	8c\	-ri	.	.	.	.
=162	=162	=162	=162	=162	=162	=162	=162	=162	=162	=162	=162
8G\L	-	.	.	.	.	8A/	cor-	.	.	.	.
8F\	.	.	.	.	.	16B-X\	-di-	.	.	.	.
.	.	.	.	.	.	16c\	-a(e)	.	.	.	.
!LO:TX:a:t=P:problem=zamazanie koncówki linii	!	!	!	!	!	!LO:LB:g=original	!	!	!	!	!
8E\	.	.	.	.	.	4G/	ſu-	.	.	.	.
8C\J	.	.	.	.	.	.	.	.	.	.	.
!LO:LB:g=original	!	!	!	!	!	!	!	!	!	!LO:LB:g=original	!
=163	=163	=163	=163	=163	=163	=163	=163	=163	=163	=163	=163
!LO:TX:a:t=P:problem= mixed beam	!	!	!	!	!	!	!	!	!	!	!
8F\L	.	8r	8r	.	.	8F/	-a(e)	8r	.	8r	.
8BB-X/	.	8f/	8f/	.	.	8A/	ſi-	8f\	ſi-	8cc\	ſi-
8C/	.	8f/L	8f/L	.	.	8A/	-cut	8f,\	-cut	8cc\	-cut
8CC/J	.	16f/L	16f/L	.	.	8A/	lo-	8f\	lo-	8ff\	lo-
.	.	16f/JJ	16f/JJ	.	.	.	.	.	.	.	.
=164	=164	=164	=164	=164	=164	=164	=164	=164	=164	=164	=164
4FF/	.	8c#X/L	8c#X/L	.	.	8A/	-cu-	8a\	-cu-	8ee\	-cu-
.	.	8c#/	8c#/	.	.	8A/	-tus	8a,\	-tus	8ee,\	-tus
4r	.	8d/	8d/	.	.	8A/	eſt	8f\	eſt	8dd\	eſt
.	.	8d/J	8d/J	.	.	8A/	ad	8f\	ad	8dd\	ad
=165	=165	=165	=165	=165	=165	=165	=165	=165	=165	=165	=165
8r	.	8A/L	8A/L	8r	.	8A/	Pa-	8e\	Pa-	8cc#X\	Pa-
8A\L	#	8a/	8a/	8A\	ad	8A/	-tres	8e\	-tres	8cc#\	-tres
8d\	.	8a/	8a/	8d\	Pa-	4r	.	4r	.	4r	.
8A\J	#	8a/J	8a/J	8A\	-tres	.	.	.	.	.	.
=166	=166	=166	=166	=166	=166	=166	=166	=166	=166	=166	=166
!LO:TX:a:t=P:problem= mixed beam	!	!	!	!	!	!	!	!	!	!	!
8F\L	6	8a/L	8a/L	8F\	no-	2r	.	2r	.	2r	.
8G\	6	16g/L	16g/L	8G,\	-ſtros	.	.	.	.	.	.
.	.	16f/JJ	16f/JJ	.	.	.	.	.	.	.	.
8A\	#	8.e/L	8e/L	8A\	A-	.	.	.	.	.	.
8AA/J	.	.	16e/L	8AA/	-bra-	.	.	.	.	.	.
.	.	16e/Jk	16e/JJ	.	.	.	.	.	.	.	.
!	!	!	!	!	!	!LO:TX:a:t=P:problem= brak kreski taktowej	!	!LO:TX:a:t=P:problem= brak kreski taktowej	!	!LO:TX:a:t=P:problem= brak kreski taktowej	!
=167	=167	=167	=167	=167	=167	=167	=167	=167-z	=167	=167-z	=167
4D/	.	8d/L	8d/L	4D/	-ham	8A/	A-	8f\	a-	8ff\	A-
.	.	8d/	8d/	.	.	8A/	-bra-	8f\	-bra-	8ff\	-bra-
4r	.	8d/	8d/	4r	.	8A,/	-ham	8f\	-ham	8ff\	-ham
!	!	!	!	!	!	!	!	!LO:LB:g=original	!	!	!
.	.	8d/J	8d/J	.	.	8A/	et	8f\	et	8ff\	et
!	!	!	!LO:LB:g=original	!	!	!	!	!	!	!	!
=168	=168	=168	=168	=168	=168	=168	=168	=168	=168	=168	=168
!LO:N:vis=0	!	!	!	!LO:N:vis=0	!	!	!	!	!	!	!
1r	.	8B/L	8B/L	1r	.	4G/	ſe-	4f\	ſe-	4dd\	ſe-
.	.	8B/	8B/	.	.	.	.	.	.	.	.
.	.	8G/	8G/	.	.	8B/	-mi-	8f\	-mi-	8dd\	-mi-
.	.	8G/J	8G/J	.	.	8B/	-ni	8f,\	-ni	8dd\	-ni
!	!	!LO:LB:g=original	!	!	!	!	!	!	!	!	!
=169	=169	=169	=169	=169	=169	=169	=169	=169	=169	=169	=169
.	.	8c/L	8c/L	.	.	8c\	e-	8e\	e-	8ee\	e-
!	!	!	!	!	!	!LO:LB:g=original	!	!	!	!	!
.	.	8f/	8f/	.	.	16d,\	-ius	16a\	-jus	16ff,\	-jus
.	.	.	.	.	.	16c\	in	16a\	in	16ee\	in
!	!	!	!	!	!	!	!	!	!	!LO:LB:g=original	!
.	.	8g/	8g/	.	.	8.B\	ſa(e)-	8.g\	ſa(e)-	8.dd\	ſa(e)-
.	.	8G/J	8G/J	.	.	.	.	.	.	.	.
.	.	.	.	.	.	16B\	-cu-	16g\	-cu-	16dd\	-cu-
!LO:TX:a:t=P:problem=brak kreski taktowej	!	!	!	!	!	!	!	!	!	!	!
=170-z	=170	=170	=170	=170	=170	=170	=170	=170	=170	=170	=170
8r	.	8c/L	8c/L	8r	.	8c\	-la	8g\	-la	8cc\	-la
8G\L	.	8g/	8g/	8G\	et	8r	.	8r	.	8r	.
8c\	.	8g/	8g/	8c\	ſe-	4r	.	4r	.	4r	.
8G\J	.	8g/J	8g/J	16G\	-mi-	.	.	.	.	.	.
.	.	.	.	16G\	-ni	.	.	.	.	.	.
!	!	!	!	!LO:LB:g=original	!	!	!	!	!	!	!
=171	=171	=171	=171	=171	=171	=171	=171	=171	=171	=171	=171
!LO:TX:a:t=P:problem= mixed beam	!	!	!	!	!	!	!	!	!	!LO:N:vis=0	!
8E\L	6	8g/L	8g/L	8E\	e-	2r	.	2r	.	1r	.
8F\	6	16f/L	16f/L	16F\	-jus	.	.	.	.	.	.
.	.	16e/JJ	16e/JJ	16F\	in	.	.	.	.	.	.
8G\	.	8d/L	8d/L	8G\	ſa(e)-	.	.	.	.	.	.
8GG/J	.	16d/L	16d/L	8GG/	-cu-	.	.	.	.	.	.
.	.	16d/JJ	16d/JJ	.	.	.	.	.	.	.	.
!	!	!	!	!	!	!	!	!LO:TX:a:t=P:problem= brak kreski taktowej	!	!	!
=172	=172	=172	=172	=172	=172	=172	=172	=172-z	=172	=172	=172
4C/	.	4c/	4c/	4C,/	-la	4e\	Glo-	4g\	Glo-	.	.
!LO:TX:b:i:t=Tut	!	!	!	!	!	!	!	!	!	!	!
4c\	.	4r	4r	8c\	Glo-	8e\	-ri-	8g\	-ri-	.	.
.	.	.	.	16c\	-ri-	8e\	-a	8g\	-a	.	.
.	.	.	.	16c\	-a	.	.	.	.	.	.
=173	=173	=173	=173	=173	=173	=173	=173	=173	=173	=173	=173
4B\	6	2r	2r	4B\	Pa-	(4d\	Pa-	(4g\	Pa-	2r	.
4A\	6|	.	.	4A\	.	4c\)	.	4f#X\)	.	.	.
!	!	!	!	!	!	!	!	!	!	!LO:TX:a:t=P:problem= brak kreski taktowej	!
=174	=174	=174	=174	=174	=174	=174	=174	=174	=174	=174-z	=174
4G\	.	8r	8r	4G\	-tri	4B\	-tri	4g\	-tri	4g/	Glo-
.	.	8g/L	8g/L	.	.	.	.	.	.	.	.
4r	.	8g/	8g/	4r	.	4r	.	4r	.	8g/	-ri-
.	.	8g/J	8g/J	.	.	.	.	.	.	8g/	-a
=175	=175	=175	=175	=175	=175	=175	=175	=175	=175	=175	=175
2r	.	8e/L	8e/L	2r	.	2r	.	2r	.	(4cc\	Pa-
.	.	8f/	8f/	.	.	.	.	.	.	.	.
.	.	8d/	8d/	.	.	.	.	.	.	4b\)	.
.	.	8e/J	8e/J	.	.	.	.	.	.	.	.
!LO:LB:g=original	!	!	!	!	!	!	!	!	!	!	!
=176	=176	=176	=176	=176	=176	=176	=176	=176	=176	=176	=176
4r	.	4c/	4c/	4r	.	4r	.	4r	.	4cc\	-tri
4C/	.	4r	4r	4c\	et	4e\	Et-	4g\	et	4r	.
!	!	!	!	!	!	!	!	!LO:LB:g=original	!	!	!
=177	=177	=177	=177	=177	=177	=177	=177	=177	=177	=177	=177
4BB/	6	2r	2r	4B\	fi-	4d\	-fi-	4g\	fi-	2r	.
4AA/	7	.	.	4A\	-li-	4c\	-li-	4f#X\	-li-	.	.
.	6|	.	.	.	.	.	.	.	.	.	.
=178	=178	=178	=178	=178	=178	=178	=178	=178	=178	=178	=178
4GG/	.	8r	8r	4G\	-o	4B\	-o	4g\	-o	4r	.
.	.	8g/L	8g/L	.	.	.	.	.	.	.	.
4r	.	8g/	8g/	4r	.	4r	.	4r	.	4g/	et
.	.	8g/J	8g/J	.	.	.	.	.	.	.	.
!	!	!LO:LB:g=original	!LO:LB:g=original	!	!	!	!	!	!	!	!
=179	=179	=179	=179	=179	=179	=179	=179	=179	=179	=179	=179
!	!	!	!	!	!	!	!	!LO:TX:a:t=1	!	!	!
2r	.	8e/L	8e/L	2r	.	2r	.	2r	.	4cc\	fi-
.	.	8f/	8f/	.	.	.	.	.	.	.	.
.	.	8d/	8d/	.	.	.	.	.	.	4b\	-li-
.	.	8e/J	8e/J	.	.	.	.	.	.	.	.
!	!	!	!	!LO:LB:g=original	!	!LO:LB:g=original	!	!	!	!	!
=180	=180	=180	=180	=180	=180	=180	=180	=180	=180	=180	=180
4r	.	4c/	4c/	4r	.	4r	.	4r	.	4cc\	-o
4G\	.	4r	4r	8G\	Et	8d\	Et	8b\	et	4r	.
.	.	.	.	8G\	ſpi-	8d\	ſpi-	8b\	ſpi-	.	.
=181	=181	=181	=181	=181	=181	=181	=181	=181	=181	=181	=181
4F#X\	6	2r	2r	4F#X\	-ri-	4d\	-ri-	4a\	-ri-	2r	.
4E\	7	.	.	8E\	-tu-	8c#X\	-tu-	8g\	-tu-	.	.
.	6	.	.	8E\	-i	8c#\	-i	8g\	-i	.	.
!	!	!	!	!	!	!	!	!	!	!LO:TX:a:t=P:problem= brak kreski taktowej	!
=182	=182	=182	=182	=182	=182	=182	=182	=182	=182	=182-z	=182
4D/	.	8r	8r	8D/	ſanc-	8d\	ſanc-	8f#X\	ſanc-	4r	.
.	.	8dd\L	8dd\L	8D/	-to	8d\	-to	8e\	-to	.	.
!	!	!	!	!	!	!	!	!	!	!LO:LB:g=original	!
4r	.	8dd\	8dd\	4r	.	4r	.	4r	.	8dd\	et
.	.	8dd\J	8dd\J	.	.	.	.	.	.	8dd\	ſpi-
=183	=183	=183	=183	=183	=183	=183	=183	=183	=183	=183	=183
!	!	!	!	!LO:TX:a:t=P:problem= brak wpisanej kreski taktowej między 183 i 184 t	!	!	!	!	!	!	!
2r	.	8b\L	8b\L	2r	.	2r	.	2r	.	4gg\	-ri-
.	.	8cc\	8cc\	.	.	.	.	.	.	.	.
.	.	8a\	8a\	.	.	.	.	.	.	8ff#X\	-tu-
.	.	8b\J	8b\J	.	.	.	.	.	.	8ff#\	-i
!	!	!	!	!	!	!LO:TX:b:i:t=Verte	!	!	!	!	!
!	!	!	!	!	!	!LO:PB:g=original	!	!	!	!	!
=184	=184	=184	=184	=184	=184	=184	=184	=184	=184	=184	=184
4r	.	8g/L	8g/L	4r	.	4r	.	4r	.	8gg\	ſan-
.	.	8g/	8g/	.	.	.	.	.	.	8dd,\	-cto
4G\	.	8g/	8g/	8G\	ſi-	8B\	ſi-	8g\	ſi-	8dd\	ſi-
.	.	8g/J	8g/J	8G\	-cut	8B\	-cut	8g\	-cut	8dd\	-cut
=185	=185	=185	=185	=185	=185	=185	=185	=185	=185	=185	=185
4E\	6	8cc\L	8cc\L	8E\	e-	8c\	e-	8g\	e-	8ee\	e-
.	.	8g\	8g\	8E\	-rat	8c,\	-rat	8g,\	-rat	8ee\	-rat
4BB/	6	8dd\	8dd\	8BB/	in	8G/	in	8g\	in	8dd\	in
.	.	8g\J	8g\J	8BB/	prin-	8G/	prin-	8g\	prin-	8dd\	prin-
=186	=186	=186	=186	=186	=186	=186	=186	=186	=186	=186	=186
4C/	.	8ee\L	8ee\L	8C/	-ci-	8c\	-ci-	8g\	-ci-	8ee\	-ci-
!	!	!	!	!	!	!	!	!LO:LB:g=original	!	!	!
.	.	8gg\	8gg\	8C/	-pi-	8c\	-pi-	8g\	-pi-	8ee\	-pi-
4FF/	.	8ff\	8ff\	8FF/	-o	8d\	-o	8a,\	-o	8ff,\	-o
.	.	8ee\J	8ee\J	8FF/	et	8c\	et	8a\	et	8ee\	et
!	!	!	!	!LO:PB:g=original	!	!	!	!	!	!	!
=187	=187	=187	=187	=187	=187	=187	=187	=187	=187	=187	=187
4GG/	.	8dd\L	8dd\L	4GG/	nunc	4B\	nunc	4g\	nunc	4dd\	nunc
.	.	8gg\	8gg\	.	.	.	.	.	.	.	.
4C/	.	8ee\	8ee\	4C/	et	4c\	et	4g\	et	4ee\	et
.	.	8cc\J	8cc\J	.	.	.	.	.	.	.	.
=188	=188	=188	=188	=188	=188	=188	=188	=188	=188	=188	=188
4G\	4	8dd\L	8dd\L	2GG/	ſem-	(4c\	ſem-	2g\	ſem-	2dd\	ſem-
.	3	8gg\	8gg\	.	.	.	.	.	.	.	.
4GG/	.	8gg\	8gg\	.	.	4B\)	.	.	.	.	.
.	.	8gg\J	8gg\J	.	.	.	.	.	.	.	.
!	!	!LO:LB:g=original	!	!	!	!	!	!	!	!	!
=189	=189	=189	=189	=189	=189	=189	=189	=189	=189	=189	=189
4C/	.	8ee\L	8ee\L	4C,/	-per	4c,\	-per	4g,\	-per	4cc\	-per
.	.	8cc\	8cc\	.	.	.	.	.	.	.	.
!LO:LB:g=original	!	!	!	!	!	!	!	!	!	!LO:LB:g=original	!
8C/L	.	8cc\	8cc\	8C/	et	8e\	Et	8e\	et	8cc\	et
8D/J	.	8cc\J	8cc\J	8D/	in	8d\	in	8f\	in	8cc\	in
!	!	!	!LO:LB:g=original	!	!	!	!	!	!	!	!
=190	=190	=190	=190	=190	=190	=190	=190	=190	=190	=190	=190
8E\L	.	8cc\L	8cc\L	8E\	ſa(e)-	8c\	ſa(e)-	8g\	ſa(e)-	8cc\	ſa(e)
8D\	.	8cc\	8cc\	16C/	-cu-	16c\	-cu-	16f\	-cu-	16cc\	cu-
.	.	.	.	16D,/	-la	16c\	-la	16f,\	-la	16cc\	-la
!	!	!	!	!	!	!LO:LB:g=original	!	!	!	!	!
8E\	.	8cc\	8cc\	8E\	ſa(e)-	8c\	ſa(e)-	8g\	ſa(e)-	8cc\	ſa(e)-
8C\J	.	8cc\J	8cc\J	8C/	-cu-	8c\	-cu-	8e\	-cu-	8cc\	-cu-
=191	=191	=191	=191	=191	=191	=191	=191	=191	=191	=191	=191
4F\	.	8cc\L	8cc\L	8F\	-lo-	8c\	-lo-	8a\	-lo-	8a\	-lo-
.	.	8a\	8a\	8F,\	-rum	8c,\	-rum	8a\	-ru(m)	8a,\	-rum
8D\L	#	8dd\	8dd\	8D\	a-	8d\	A-	8f#X\	A-	8dd\	a-
8E\J	.	8dd\J	8dd\J	8E\	-men	8d\	-men	8g\	-men	8dd\	-men
=192	=192	=192	=192	=192	=192	=192	=192	=192	=192	=192	=192
*	*	*	*	*	*	*	*ij	*	*ij	*	*ij
8F#X\L	6	8dd\L	8dd\L	8F#X\	A-	8d\	a-	8a\	a-	8dd\	a-
8D\	.	8dd\	8dd\	8E,\	-men	8d,\	-men	8g,\	-men	8dd,\	-men
8F#\	#	8dd\	8dd\	8F#X\	a-	8d\	a-	8a\	a-	8dd\	a-
!	!	!	!	!	!	!	!	!LO:LB:g=original	!	!	!
8D\J	.	8dd\J	8dd\J	8D/	-men	8d,\	-men	8g#X,\	-men	8dd\	-men
=193	=193	=193	=193	=193	=193	=193	=193	=193	=193	=193	=193
4G\	.	8dd\L	8dd\L	8G\	A-	8d\	a-	8g\	a-	8b\	a-
.	.	8b\	8b\	8G,\	-men	8d,\	-men	8g,\	-men	8b,\	-men
*	*	*	*	*	*	*	*Xij	*	*Xij	*	*Xij
8E\L	#	8ee\	8ee\	8E\	et	8B\	et	8g#X\	et	8ee\	et
8F#X\J	.	8ee\J	8ee\J	8F#X\	in	8B\	in	8a\	in	8ee\	in
!	!	!	!	!	!	!	!	!	!	!LO:LB:g=original	!
=194	=194	=194	=194	=194	=194	=194	=194	=194	=194	=194	=194
8G#X\L	6	8ee\L	8ee\L	8G#X\	ſa(e)-	8B\	ſa(e)-	8b\	ſa(e)-	8ee\	ſa(e)-
!LO:SIC:s=F#	!	!	!	!LO:SIC:s=F#	!	!	!	!	!	!	!
8F\	.	8ee\	8ee\	16F\	-cu-	16B\	-cu-	16a\	-cu-	16ee\	-cu-
.	.	.	.	16F,\	-la	16B\	-la	16a\	-la	16ee,\	-la
8G#X\	.	8ee\	8ee\	8G#X\	ſa(e)-	8B\	ſa(e)-	8b\	ſa(e)-	8ee\	ſa(e)-
8E\J	.	8ee\J	8ee\J	8E\	-cu-	8B\	-cu-	8g#X\	-cu-	8ee\	-cu-
!	!	!	!	!LO:LB:g=original	!	!	!	!	!	!	!
=195	=195	=195	=195	=195	=195	=195	=195	=195	=195	=195	=195
4A\	.	8ee\L	8ee\L	8A\	-lo-	8c\	-lo-	8b\	-lo-	8cc\	-lo-
!	!	!	!	!	!	!LO:LB:g=original	!	!	!	!	!
.	.	8cc\	8cc\	8A,\	-ru(m)	8c,\	-ru(m)	8a,\	-ru(m)	8cc,\	-ru(m)
8Gn\L	5 3	8gg\	8gg\	8G\	A-	8B\	ſa(e)-	8f\	A-	8gg\	A-
8A\J	.	8gg\J	8gg\J	8A\	-men	8c\	-cu-	8d\	-men	8gg\	-men
=196	=196	=196	=196	=196	=196	=196	=196	=196	=196	=196	=196
*	*	*	*	*	*ij	*	*	*	*	*	*ij
8B\L	6	8gg\L	8gg\L	8B\	A-	8d\	-lo-	8g\	A-	8gg\	A-
8A\	.	8gg\	8gg\	8A,\	-men	8c,\	-ru(m)	8g,\	-men	(8gg\	.
*	*	*	*	*	*	*	*	*	*ij	*	*
8B\	.	8gg\	8gg\	8B\	A-	8d\	A-	8g\	A-	8gg\)	-men
8G\J	.	8gg\J	8gg\J	8G,\	-men	8B,\	-men	8g\	-men	8gg\	.
=197	=197	=197	=197	=197	=197	=197	=197	=197	=197	=197	=197
*	*	*	*	*	*	*	*ij	*	*	*	*
8c\L	.	8gg\L	8gg\L	8c\	A-	8c\	A-	8g\	A-	8ee\	A-
!	!	!	!	!LO:LB:g=original	!	!	!	!	!	!	!
8F\J	.	8aa\	8aa\	8F\	-men	8d,\	-men	8a,\	-men	8dd,\	-men
*	*	*	*	*	*Xij	*	*Xij	*	*Xij	*	*Xij
!LO:LB:g=original	!	!	!	!	!	!	!	!	!	!	!
!LO:TX:a:t=P:problem= mixed beam	!	!	!	!LO:TX:a:t=P:problem= mixed beam	!	!	!	!	!	!	!
8G\L	.	8dd\	8dd\	8G\L	A-	4B\	A-	4g\	a-	4cc\	A-
8GG/J	.	8gg\J	8gg\J	8GG/J	.	.	.	.	.	.	.
!	!	!LO:LB:g=original	!	!	!	!	!	!LO:LB:g=original	!	!	!
=198	=198	=198	=198	=198	=198	=198	=198	=198	=198	=198	=198
8C/	.	8ee\L	8ee\L	8C/	-men	8c\	-men	8g\	-men	8cc,\	-men
8r	.	16cc\L	16cc\L	8r	.	8r	.	8r	.	8cc\L	A-
.	.	16b-X\JJ	16b-X\JJ	.	.	.	.	.	.	.	.
4r	.	16a/LL	16a/LL	4r	.	4r	.	4r	.	8ff\	.
.	.	16b-X/	16b-X/	.	.	.	.	.	.	.	.
.	.	16g/	16g/	.	.	.	.	.	.	8ee\J	.
.	.	16a/JJ	16a/JJ	.	.	.	.	.	.	.	.
!	!	!	!LO:LB:g=original	!	!	!	!	!	!	!	!
=199	=199	=199	=199	=199	=199	=199	=199	=199	=199	=199	=199
8r	.	8f/	8f/	8r	.	8r	.	8r	.	8ff\	-men
8F\L	.	8r	8r	8F\L	A-	(4c\	A-	8a\L	A-	8r	.
8E\	6	4r	4r	8E\	.	.	.	8g\	.	4r	.
8D\J	6	.	.	8D\J	.	8B\)	.	8f\J	.	.	.
!	!	!	!	!	!	!	!	!	!	!LO:PB:g=original	!
=200	=200	=200	=200	=200	=200	=200	=200	=200	=200	=200	=200
8C/	.	8r	8r	8C/	-men	8c\	-men	8f\	-men	8r	.
8r	.	16cc\LL	16cc\LL	8r	.	8r	.	8r	.	8cc\L	A-
.	.	16b-X\JJ	16b-X\JJ	.	.	.	.	.	.	.	.
4r	.	16a/LL	16a/LL	4r	.	4r	.	4r	.	8ff\	.
.	.	16b-X/	16b-X/	.	.	.	.	.	.	.	.
.	.	16g/	16g/	.	.	.	.	.	.	8ee\J	.
.	.	16a/JJ	16a/JJ	.	.	.	.	.	.	.	.
=201	=201	=201	=201	=201	=201	=201	=201	=201	=201	=201	=201
!	!	!LO:TX:a:t=P:problem= mixed beam	!LO:TX:a:t=P:problem= mixed beam	!	!	!	!	!	!	!	!
8r	.	8f/L	8f/L	8r	.	8r	.	8r	.	8ff,\	-men
*	*	*	*	*	*	*	*ij	*	*	*	*ij
8F\L	.	8aa\	8aa\	8F\L	A-	8B\	A-	8a\L	A-	4cc\	A-
8E\	6	8gg\	8gg\	8E\	.	4B,\	-men	8g\	.	.	.
8D\J	6	8ff\J	8ff\J	8D\J	.	.	.	8f\J	.	8dd\	.
=202	=202	=202	=202	=202	=202	=202	=202	=202	=202	=202	=202
!LO:TX:a:t=P:problem= mixed beam	!	!	!	!	!	!	!	!	!	!	!
8C/L	.	8ee\L	8ee\L	8C,/	-men	8c\	A-	8e,\	-men	8ee\	.
!	!	!	!	!	!	!LO:LB:g=original	!	!	!	!	!
8F\J	6 5	8aa\	8aa\	8F\	A-	8d\	-men	8a\	A-	8dd\	.
!LO:TX:a:t=P:problem= mixed beam	!	!	!	!LO:TX:a:t=P:problem= mixed beam	!	!	!	!	!	!	!
8G\L	.	8dd\	8dd\	8G\L	.	4B\	A-	4g\	.	4dd\	.
8GG/J	.	8gg\J	8gg\J	8GG/J	.	.	.	.	.	.	.
=203	=203	=203	=203	=203	=203	=203	=203	=203	=203	=203	=203
4C/	.	8ee\L	8ee\L	8C,/	-men	4c,	-men	8g,\	-men	4cc,\	-men
*	*	*	*	*	*ij	*	*	*	*ij	*	*Xij
.	.	8gg\	8gg\	4E\	A-	.	.	4g\	A-	.	.
4E\	6	8gg\	8gg\	.	.	8c\	A-	.	.	(8cc\L	A-
.	.	8ee\J	8ee\J	8E\	-men	8c,\	-men	8g,\	-men	8b\J)	.
*	*	*	*	*	*	*	*Xij	*	*	*	*
!	!	!	!	!LO:LB:g=original	!	!	!	!	!	!	!
=204	=204	=204	=204	=204	=204	=204	=204	=204	=204	=204	=204
4F\	.	8aa\L	8aa\L	4F\	A	4c\	A-	4a\	A-	(8a\L	.
.	.	8cc\	8cc\	.	.	.	.	.	.	8b\J)	.
8E\L	6	8cc\	8cc\	8E\L	men	4c,\	-men	4g\	-men	4cc\	.
8F\J	.	8ff\J	8ff\J	8F,\J	.	.	.	.	.	.	.
!	!	!LO:LB:g=original	!	!	!	!	!	!	!	!	!
=205	=205	=205	=205	=205	=205	=205	=205	=205	=205	=205	=205
*2\right	*	*	*	*	*Xij	*	*ij	*	*	*	*
!LO:TX:a:t=P:problem=zamazanie koncówki linii	!	!	!	!	!	!	!	!	!	!	!
2G\	5 3	8dd\L	8dd\L	4G\	A-	4d\	A-	4g\	A-	4b\	-men
.	5 4	8gg\	8gg\	.	.	.	.	.	.	.	.
.	.	8dd\	8dd\	4G\	-men	4e\	-men	4f\	-men	4cc\	.
.	.	8cc\J	8cc\J	.	.	.	.	.	.	.	.
*	*	*2\right	*2\right	*	*	*	*Xij	*	*Xij	*	*
!LO:LB:g=original	!	!	!	!	!	!	!	!	!	!	!
=206	=206	=206	=206	=206	=206	=206	=206	=206	=206	=206	=206
2GG/	4	8dd\L	8dd\L	2GG/	A-	2d\	A-	2g\	A-	(4cc\	A-
.	5 3	8gg\	8gg\	.	.	.	.	.	.	.	.
.	.	8gg\	8gg\	.	.	.	.	.	.	4b\)	.
.	.	8gg\J	8gg\J	.	.	.	.	.	.	.	.
=207	=207	=207	=207	=207	=207	=207	=207	=207	=207	=207	=207
2C/	.	2ee\	2ee\	2C/	-men	2c\	-men	2g\	-men	2cc\	-men
!	!	!LO:TX:b:t=Laus Deo	!	!	!	!	!	!	!	!	!
=||	=||	=||	=||	=||	=||	=||	=||	=||	=||	=||	=||
*-	*-	*-	*-	*-	*-	*-	*-	*-	*-	*-	*-
!!!system-decoration: [(g1)][(g2)][(g3)]
!!!ENC: Anna Matuszewska
!!!END: 2020-11-05
!!!ENC: Anastazja Marusiak
!!!END: 2020-07-06
